fraylabs/possible/apps/web/public/demo/robot-snake/simulation/obstacle-course/trajectory.csv
time_s,head_x_m,head_y_m,head_yaw_rad,state,q_joint_01_rad,q_joint_02_rad,q_joint_03_rad,q_joint_04_rad,q_joint_05_rad,q_joint_06_rad,q_joint_07_rad,q_joint_08_rad,q_joint_09_rad,dq_joint_01_rad_s,dq_joint_02_rad_s,dq_joint_03_rad_s,dq_joint_04_rad_s,dq_joint_05_rad_s,dq_joint_06_rad_s,dq_joint_07_rad_s,dq_joint_08_rad_s,dq_joint_09_rad_s,cmd_joint_01_rad,cmd_joint_02_rad,cmd_joint_03_rad,cmd_joint_04_rad,cmd_joint_05_rad,cmd_joint_06_rad,cmd_joint_07_rad,cmd_joint_08_rad,cmd_joint_09_rad,range_head_range_m60_m,range_head_range_m30_m,range_head_range_00_m,range_head_range_p30_m,range_head_range_p60_m
0.002000,0.000000,0.000000,0.000000,slither,-0.000191,0.000391,0.000168,0.000249,0.000658,-0.000672,-0.000338,-0.000386,-0.000715,-0.095728,0.195309,0.083893,0.124736,0.328896,-0.336214,-0.168984,-0.193054,-0.357342,0.000000,0.068000,0.068000,0.068000,0.068000,-0.068000,-0.068000,-0.068000,-0.068000,-0.800000,-0.800000,0.632000,-0.800000,-0.800000
0.050000,-0.000478,-0.007876,-0.063224,slither,0.000301,0.039121,0.038796,0.050234,0.016710,-0.055503,-0.043557,-0.043696,-0.031200,0.743843,1.643290,1.625364,2.092625,-0.567471,-1.774761,-1.498540,-1.705848,-0.040874,0.093248,0.204000,0.204000,0.204000,-0.021218,-0.204000,-0.204000,-0.204000,-0.060536,-0.800000,-0.800000,0.647468,-0.800000,-0.800000
0.100000,-0.008747,-0.029002,-0.288215,slither,0.065382,0.155719,0.157233,0.164501,-0.036977,-0.163810,-0.149459,-0.162512,0.000529,1.393032,2.560958,2.620622,1.671619,-1.194325,-2.145427,-2.254311,-2.498304,0.939673,0.177274,0.340000,0.340000,0.272442,-0.124312,-0.340000,-0.340000,-0.340000,0.030987,-0.800000,-0.800000,-0.800000,-0.800000,-0.800000
0.150000,-0.026940,-0.043819,-0.519431,slither,0.152853,0.306664,0.305058,0.177139,-0.108090,-0.280035,-0.276772,-0.200150,0.079747,2.081884,3.076123,1.894633,-0.626016,-1.292206,-2.090980,-2.259295,0.180874,1.630890,0.287019,0.509557,0.443135,0.124322,-0.274875,-0.539313,-0.526163,-0.241557,0.162704,-0.800000,-0.800000,-0.800000,0.669733,-0.800000
0.200000,-0.041442,-0.039194,-0.631808,slither,0.247855,0.415904,0.359529,0.125917,-0.189711,-0.377610,-0.351296,-0.159182,0.174137,1.575524,1.307202,0.185991,-1.400583,-1.702486,-1.366479,-0.636441,0.829056,1.772902,0.353804,0.514338,0.379854,0.023654,-0.361986,-0.568988,-0.485139,-0.154299,0.247128,-0.800000,-0.800000,-0.800000,-0.800000,-0.800000
0.250000,-0.046084,-0.025310,-0.651048,slither,0.341765,0.468680,0.346566,0.045599,-0.275013,-0.430104,-0.349422,-0.086799,0.270711,1.771193,0.623768,-0.789977,-1.786879,-1.612153,-0.546366,0.722896,1.615537,1.887605,0.439681,0.498180,0.269634,-0.122139,-0.465731,-0.575588,-0.391583,-0.011282,0.362411,-0.800000,-0.800000,-0.800000,-0.800000,-0.800000
0.300000,-0.046551,-0.009649,-0.622677,slither,0.422975,0.485832,0.295513,-0.041718,-0.349444,-0.453505,-0.307490,0.008306,0.358064,1.347780,0.171233,-1.185356,-1.820788,-1.406977,-0.326661,1.016013,1.797983,1.574386,0.481588,0.469288,0.186391,-0.214176,-0.516342,-0.556838,-0.312816,0.085896,0.426459,-0.800000,-0.800000,-0.800000,-0.800000,-0.800000
0.350000,-0.045119,0.008568,-0.546860,slither,0.485317,0.475230,0.217582,-0.139837,-0.415119,-0.452570,-0.239065,0.109422,0.430305,1.035150,-0.631826,-1.848039,-2.003803,-1.359561,0.129164,1.677335,2.386561,1.378685,0.517093,0.399945,0.052303,-0.338333,-0.561394,-0.496234,-0.176873,0.226259,0.497778,-0.800000,-0.800000,-0.800000,0.680110,-0.800000
0.400000,-0.043488,0.029408,-0.418788,slither,0.520827,0.429647,0.119811,-0.239441,-0.464664,-0.426851,-0.154089,0.210368,0.482127,0.545138,-0.953410,-1.861410,-1.968388,-0.807420,0.656452,1.819562,1.971753,0.757881,0.522551,0.339487,-0.038248,-0.407209,-0.568658,-0.435213,-0.077739,0.312680,0.527281,-0.800000,-0.800000,-0.800000,-0.800000,-0.800000
0.450000,-0.043527,0.050077,-0.263243,slither,0.530232,0.360261,0.012308,-0.332514,-0.494152,-0.378556,-0.057943,0.307291,0.512680,-0.056797,-1.672704,-2.408284,-1.870545,-0.257775,1.246870,1.962046,1.827489,0.406381,0.501251,0.230462,-0.170394,-0.485828,-0.546190,-0.318706,0.074931,0.423868,0.541240,-0.800000,-0.800000,-0.800000,-0.800000,-0.800000
0.500000,-0.046110,0.067828,-0.092951,slither,0.514671,0.270949,-0.095293,-0.413455,-0.499335,-0.309388,0.047596,0.390530,0.518055,-0.423988,-1.680126,-1.703415,-1.331876,0.070343,1.515950,1.970061,1.472823,0.006611,0.468037,0.148829,-0.252068,-0.519416,-0.509641,-0.227879,0.174778,0.482364,0.529931,-0.800000,-0.800000,0.681374,-0.800000,-0.800000
0.550000,-0.049722,0.080884,0.076361,slither,0.473071,0.171025,-0.203772,-0.473577,-0.478914,-0.220756,0.152345,0.456333,0.501778,-1.163052,-2.282979,-2.333156,-1.071386,0.675917,2.001611,2.188687,1.029310,-0.694828,0.390554,0.017638,-0.360163,-0.540385,-0.426589,-0.080114,0.312840,0.541133,0.481985,-0.800000,-0.800000,-0.800000,-0.800000,-0.800000
0.600000,-0.054693,0.090950,0.249434,slither,0.409460,0.060863,-0.304471,-0.511268,-0.434305,-0.122535,0.253638,0.496784,0.459881,-1.286870,-1.953361,-1.777416,-0.625529,0.924333,1.997966,1.868489,0.704360,-0.757043,0.323906,-0.070656,-0.418376,-0.533193,-0.354025,0.022450,0.393676,0.559912,0.431421,-0.800000,-0.800000,-0.800000,-0.800000,-0.800000
0.650000,-0.060658,0.096260,0.411222,slither,0.325255,-0.051815,-0.396711,-0.525502,-0.368135,-0.014950,0.345487,0.513719,0.391744,-2.056434,-2.591814,-1.793069,-0.022760,1.605515,2.384143,1.712871,-0.063283,-1.649585,0.206042,-0.198049,-0.480911,-0.491645,-0.225382,0.174104,0.491549,0.555713,0.331274,-0.800000,0.699637,-0.800000,-0.800000,-0.800000
0.700000,-0.066477,0.097388,0.560782,slither,0.225933,-0.163631,-0.472327,-0.518205,-0.283359,0.095484,0.420259,0.507596,0.310360,-1.907525,-2.016394,-1.333667,0.392784,1.785857,2.133828,1.336393,-0.186792,-1.539263,0.119215,-0.275659,-0.504078,-0.444570,-0.130175,0.269293,0.538365,0.531547,0.251393,-0.800000,-0.800000,-0.800000,-0.800000,-0.800000
0.750000,-0.071318,0.094750,0.691318,slither,0.113406,-0.274267,-0.525685,-0.485531,-0.185571,0.197358,0.476529,0.479977,0.213243,-2.522425,-2.153646,-0.942954,0.839954,2.062399,1.986064,0.950251,-0.906020,-2.142938,-0.020071,-0.378285,-0.512233,-0.351302,0.016880,0.393471,0.575116,0.463073,0.116198,-0.800000,-0.800000,-0.800000,-0.800000,-0.800000
0.800000,-0.074796,0.088748,0.802145,slither,-0.007674,-0.379353,-0.553579,-0.428875,-0.082628,0.295508,0.505427,0.424852,0.105159,-2.191682,-1.877649,-0.258277,1.292658,1.953553,1.779831,0.280088,-1.171204,-2.023440,-0.114761,-0.434414,-0.499680,-0.276805,0.113345,0.460139,0.576211,0.398007,0.019887,-0.800000,-0.800000,-0.800000,-0.800000,-0.800000
0.850000,-0.074736,0.078250,0.872367,slither,-0.128129,-0.466290,-0.554612,-0.352153,0.025944,0.378395,0.508870,0.346677,-0.008553,-2.437224,-1.525137,0.200550,1.757195,2.373648,1.464213,-0.192027,-1.751958,-2.348202,-0.246846,-0.490747,-0.450032,-0.147817,0.252455,0.534720,0.546243,0.279570,-0.123462,0.734619,-0.800000,-0.800000,-0.800000,-0.800000
0.900000,-0.069659,0.062262,0.889124,slither,-0.242051,-0.525070,-0.529849,-0.253983,0.139514,0.440430,0.486989,0.256160,-0.120072,-1.948821,-0.875480,0.785176,2.051490,2.145651,1.042373,-0.606107,-1.819277,-1.995754,-0.324307,-0.508039,-0.397876,-0.054202,0.337294,0.565257,0.506090,0.190275,-0.213982,0.727715,-0.800000,-0.800000,-0.800000,-0.800000
0.950000,-0.060249,0.040661,0.844408,slither,-0.341797,-0.556750,-0.470457,-0.139360,0.247414,0.482627,0.442510,0.153086,-0.225890,-1.966072,-0.344445,1.456462,2.435662,2.114788,0.607376,-1.106972,-2.234501,-2.202223,-0.418640,-0.502252,-0.295074,0.090451,0.446172,0.579934,0.418690,0.047700,-0.335224,-0.800000,-0.800000,-0.800000,-0.800000,-0.800000
1.000000,-0.049906,0.015365,0.748815,slither,-0.428664,-0.552169,-0.382641,-0.017229,0.342723,0.499265,0.378129,0.047572,-0.321765,-1.718806,0.118287,1.756970,2.441249,1.776142,0.235914,-1.261646,-2.134773,-1.705898,-0.464128,-0.477417,-0.213243,0.185364,0.503236,0.568527,0.344933,-0.048828,-0.402723,-0.800000,-0.800000,-0.800000,-0.800000,-0.800000
1.050000,-0.042185,-0.010802,0.615608,slither,-0.490355,-0.519369,-0.275580,0.101286,0.420757,0.496404,0.297481,-0.062168,-0.402425,-0.966527,0.929504,2.296723,2.328789,1.355480,-0.375015,-1.690179,-2.208272,-1.475162,-0.509129,-0.416627,-0.082512,0.312847,0.556216,0.515923,0.212515,-0.192269,-0.482288,-0.800000,0.711577,-0.800000,-0.800000,-0.800000
1.100000,-0.037526,-0.035976,0.458788,slither,-0.527697,-0.463827,-0.162005,0.214119,0.477225,0.470392,0.204943,-0.168864,-0.464430,-0.513569,1.280108,2.168893,2.035843,0.907974,-0.818706,-2.013322,-1.776965,-1.063775,-0.522592,-0.362516,0.005777,0.383837,0.567972,0.458557,0.113490,-0.282873,-0.518651,-0.800000,0.720730,-0.800000,-0.800000,-0.800000
1.150000,-0.035874,-0.058820,0.287460,slither,-0.537307,-0.388102,-0.047190,0.317606,0.507949,0.417777,0.102711,-0.271192,-0.504843,0.026330,1.681072,2.359672,2.031171,0.412183,-1.246190,-2.140153,-2.088722,-0.529394,-0.511826,-0.260305,0.137662,0.468114,0.553321,0.347155,-0.040153,-0.401168,-0.542565,-0.800000,-0.800000,-0.800000,-0.800000,-0.800000
1.200000,-0.038112,-0.078110,0.112490,slither,-0.525560,-0.300630,0.066233,0.404107,0.518423,0.350597,-0.002692,-0.364348,-0.522606,0.384805,1.788989,2.291122,1.549447,-0.116699,-1.533719,-1.945038,-1.637568,-0.186267,-0.484433,-0.181300,0.221169,0.506879,0.522390,0.259255,-0.141443,-0.464803,-0.537424,-0.800000,-0.800000,0.674933,-0.800000,-0.800000
1.250000,-0.041576,-0.092512,-0.061437,slither,-0.489606,-0.201269,0.176791,0.472848,0.502174,0.264093,-0.112093,-0.437630,-0.514240,0.957093,2.139933,2.195630,1.176067,-0.546774,-2.006455,-2.424453,-1.290236,0.498468,-0.414824,-0.052288,0.333652,0.536169,0.446866,0.113942,-0.283671,-0.532327,-0.498316,-0.800000,-0.800000,-0.800000,-0.800000,-0.800000
1.300000,-0.046371,-0.102532,-0.234045,slither,-0.431590,-0.092618,0.284332,0.517841,0.462922,0.162691,-0.222040,-0.489987,-0.478346,1.141908,1.888966,1.908672,0.711614,-0.902459,-2.032617,-2.041069,-0.905339,0.929736,-0.352205,0.036179,0.396113,0.534985,0.378813,0.011941,-0.368222,-0.557132,-0.452878,-0.800000,-0.800000,-0.800000,-0.800000,-0.800000
1.350000,-0.052532,-0.109426,-0.403329,slither,-0.352133,0.020568,0.382750,0.540084,0.403193,0.055461,-0.318263,-0.515903,-0.418914,1.839772,2.079729,1.903841,0.227557,-1.368228,-1.984185,-1.660485,-0.293655,1.411448,-0.238824,0.165717,0.466165,0.502197,0.255381,-0.140932,-0.473168,-0.562138,-0.359194,-0.800000,-0.800000,-0.800000,0.694281,-0.800000
1.400000,-0.058569,-0.112527,-0.560720,slither,-0.257071,0.134261,0.463667,0.538045,0.323393,-0.053308,-0.400105,-0.515585,-0.340683,1.768829,1.879754,1.353576,-0.099628,-1.654346,-2.232894,-1.474285,0.168070,1.540072,-0.154277,0.245507,0.494468,0.460144,0.162092,-0.238610,-0.525799,-0.544226,-0.282865,-0.800000,-0.800000,-0.800000,-0.800000,-0.800000
1.450000,-0.063889,-0.110715,-0.697275,slither,-0.147451,0.248413,0.522727,0.512148,0.227032,-0.163256,-0.460793,-0.491679,-0.244161,2.410784,2.189119,0.921357,-0.792218,-1.985975,-2.096105,-1.111247,0.770589,2.186033,-0.014366,0.355010,0.512609,0.375128,0.017610,-0.366825,-0.570613,-0.483129,-0.150051,-0.800000,-0.800000,-0.800000,-0.800000,-0.800000
1.500000,-0.066643,-0.104423,-0.810611,slither,-0.027190,0.356340,0.556746,0.458471,0.122729,-0.264960,-0.497499,-0.442606,-0.137902,2.298399,1.895722,0.309912,-1.297248,-2.053408,-1.858589,-0.406464,1.120067,1.990408,0.081349,0.415967,0.506097,0.304642,-0.079026,-0.437754,-0.577773,-0.422677,-0.054428,-0.800000,-0.800000,-0.800000,-0.800000,0.769141
1.550000,-0.066096,-0.094545,-0.891311,slither,0.096156,0.449727,0.565085,0.384711,0.011121,-0.352293,-0.504496,-0.368243,-0.023053,2.445208,1.913118,-0.064634,-1.771391,-2.297465,-1.611939,0.005164,1.731725,2.456611,0.216887,0.480559,0.465083,0.180029,-0.220366,-0.519976,-0.556754,-0.309697,0.089887,-0.800000,-0.800000,-0.800000,-0.800000,0.710810
1.600000,-0.062377,-0.080074,-0.920612,slither,0.210143,0.518058,0.547980,0.290202,-0.103374,-0.422642,-0.492704,-0.279373,0.087935,2.061022,1.158139,-0.545519,-1.974053,-2.237840,-1.199432,0.409229,1.769989,1.967829,0.297823,0.503788,0.418138,0.088104,-0.307943,-0.556209,-0.522200,-0.222898,0.182352,-0.800000,-0.800000,-0.800000,-0.800000,0.703358
1.650000,-0.054645,-0.059837,-0.891645,slither,0.315824,0.556269,0.498245,0.178471,-0.214156,-0.473878,-0.457620,-0.179580,0.197054,1.993024,0.382945,-1.452824,-2.373365,-2.132043,-0.838330,0.925484,2.094075,2.272045,0.398862,0.507092,0.321934,-0.055983,-0.422593,-0.579897,-0.442215,-0.082162,0.308317,-0.800000,-0.800000,-0.800000,-0.800000,0.709716
1.700000,-0.043740,-0.034570,-0.804557,slither,0.408044,0.559762,0.415663,0.056976,-0.317843,-0.500624,-0.401678,-0.077442,0.295277,1.327816,-0.487925,-1.964924,-2.384450,-1.845152,-0.295580,1.312092,2.101097,1.785095,0.449613,0.488170,0.243493,-0.151849,-0.484441,-0.574538,-0.372524,0.014463,0.380025,-0.800000,-0.800000,-0.800000,-0.800000,-0.800000
1.750000,-0.033631,-0.007006,-0.667776,slither,0.475276,0.530357,0.308708,-0.065663,-0.402459,-0.505103,-0.324969,0.032115,0.380087,1.199965,-0.669479,-2.216248,-2.623094,-1.556351,0.125385,1.789596,2.379748,1.457817,0.498653,0.431192,0.111950,-0.286543,-0.549233,-0.533938,-0.247651,0.157216,0.464617,-0.800000,-0.800000,-0.800000,-0.800000,-0.800000
1.800000,-0.027667,0.019969,-0.510063,slither,0.518901,0.480656,0.193966,-0.184232,-0.465810,-0.483224,-0.234380,0.137790,0.446665,0.681073,-1.115521,-2.194383,-1.938619,-0.932302,0.628710,1.687024,1.811677,1.089369,0.518388,0.382054,0.024779,-0.360765,-0.566738,-0.481661,-0.150240,0.250627,0.506774,-0.800000,-0.800000,-0.800000,0.663385,-0.800000
1.850000,-0.025508,0.043648,-0.341423,slither,0.536041,0.411347,0.078638,-0.289991,-0.507476,-0.442262,-0.137314,0.243782,0.494043,0.139780,-1.572807,-2.485530,-2.187489,-0.561941,1.126672,2.138070,2.092895,0.650899,0.516817,0.285757,-0.107549,-0.451515,-0.561030,-0.376795,0.002856,0.374725,0.539788,-0.800000,-0.800000,-0.800000,-0.800000,-0.800000
1.900000,-0.026193,0.063695,-0.166308,slither,0.529119,0.326181,-0.036117,-0.384087,-0.521039,-0.374881,-0.031402,0.338483,0.518523,-0.306372,-1.799228,-2.075160,-1.631129,-0.110746,1.406477,2.082656,1.767320,0.275578,0.495031,0.209387,-0.192848,-0.495574,-0.536090,-0.292401,0.104975,0.443050,0.540658,-0.800000,-0.800000,0.694020,-0.800000,-0.800000
1.950000,-0.028722,0.078141,0.002847,slither,0.500931,0.228968,-0.150159,-0.455083,-0.510883,-0.290517,0.080370,0.417809,0.517960,-0.916879,-2.154967,-2.238430,-1.393211,0.357240,1.917970,2.337728,1.438284,-0.278997,0.432830,0.082367,-0.309929,-0.533683,-0.468964,-0.150645,0.250318,0.518617,0.510136,-0.800000,-0.800000,0.710604,-0.800000,-0.800000
2.000000,-0.033858,0.090122,0.178387,slither,0.448554,0.123677,-0.257496,-0.508922,-0.481053,-0.195015,0.189590,0.475885,0.491007,-1.175766,-2.193007,-2.014572,-0.915512,0.712999,1.978141,2.058497,0.916699,-0.710670,0.374580,-0.005840,-0.376310,-0.538435,-0.405620,-0.049544,0.338310,0.549403,0.470053,-0.800000,-0.800000,-0.800000,-0.800000,-0.800000
2.050000,-0.039716,0.097428,0.346857,slither,0.374804,0.010625,-0.358040,-0.536865,-0.424848,-0.088739,0.289799,0.509481,0.437948,-1.805038,-2.440616,-1.979381,-0.397531,1.319610,2.366767,1.894293,0.337540,-1.343581,0.266182,-0.136961,-0.453558,-0.514493,-0.287846,0.103983,0.449951,0.563626,0.383230,-0.800000,0.687819,-0.800000,-0.800000,-0.800000
2.100000,-0.046032,0.101730,0.508613,slither,0.283301,-0.103876,-0.444088,-0.540702,-0.350134,0.021134,0.374979,0.515618,0.364494,-1.848279,-2.265121,-1.533474,0.054086,1.557542,2.257408,1.568832,0.030808,-1.420581,0.183680,-0.219153,-0.487389,-0.478100,-0.197284,0.203355,0.507812,0.551695,0.310443,-0.800000,-0.800000,-0.800000,-0.800000,-0.800000
2.150000,-0.051748,0.100821,0.652785,slither,0.176481,-0.220764,-0.510299,-0.520069,-0.257696,0.127859,0.445409,0.504270,0.273594,-2.224659,-2.308052,-1.110720,0.646381,2.061796,2.053364,1.275778,-0.480265,-2.022362,0.048911,-0.330177,-0.510815,-0.397335,-0.051902,0.338850,0.563967,0.501378,0.183402,-0.800000,-0.800000,-0.800000,-0.800000,-0.800000
2.200000,-0.054686,0.094958,0.767729,slither,0.061000,-0.329278,-0.549970,-0.474852,-0.154903,0.233626,0.489287,0.460320,0.169220,-2.308469,-1.984013,-0.477257,1.168552,2.170207,2.003839,0.568054,-1.033929,-2.003798,-0.047450,-0.395722,-0.510370,-0.331140,0.044523,0.413760,0.577164,0.445780,0.088845,-0.800000,-0.800000,-0.800000,-0.800000,-0.800000
2.250000,-0.054671,0.084136,0.848134,slither,-0.062525,-0.421895,-0.563843,-0.406435,-0.045340,0.327777,0.508343,0.395935,0.056433,-2.562687,-1.789712,0.033254,1.661139,2.263191,1.778754,0.118597,-1.560013,-2.404367,-0.185907,-0.468319,-0.478151,-0.211394,0.187537,0.503298,0.565178,0.338702,-0.055865,0.726008,-0.800000,-0.800000,-0.800000,-0.800000
2.300000,-0.051081,0.068870,0.883944,slither,-0.177372,-0.497754,-0.551441,-0.315899,0.067649,0.407297,0.501571,0.310109,-0.056866,-1.978473,-1.157010,0.432017,1.908717,2.172141,1.363431,-0.236911,-1.654730,-2.012275,-0.269998,-0.497391,-0.436603,-0.121521,0.277506,0.545085,0.536358,0.254741,-0.149912,0.705847,-0.800000,-0.800000,-0.800000,-0.800000
2.350000,-0.044444,0.048397,0.865767,slither,-0.287298,-0.545225,-0.510628,-0.208640,0.183889,0.467675,0.477023,0.213404,-0.168398,-2.125512,-0.719355,1.148810,2.277122,2.149099,1.041856,-0.682643,-2.024133,-2.190422,-0.377343,-0.509774,-0.347377,0.021432,0.397475,0.577691,0.464105,0.116401,-0.280102,-0.800000,-0.800000,-0.800000,-0.800000,-0.800000
2.400000,-0.034380,0.023814,0.791464,slither,-0.381770,-0.558615,-0.437614,-0.087118,0.290206,0.499923,0.423914,0.108122,-0.267593,-1.732119,-0.037685,1.644747,2.446172,2.029883,0.412936,-1.202452,-2.134531,-1.915161,-0.433158,-0.496839,-0.272635,0.117874,0.463864,0.578401,0.398755,0.020060,-0.355736,-0.800000,-0.800000,-0.800000,-0.800000,-0.800000
2.450000,-0.025098,-0.003488,0.670046,slither,-0.458292,-0.539132,-0.335948,0.034957,0.381506,0.508946,0.352407,0.002613,-0.357417,-1.412016,0.577104,2.207818,2.379734,1.684785,-0.063483,-1.665323,-2.194943,-1.690879,-0.491705,-0.449241,-0.145823,0.254541,0.535823,0.545896,0.278170,-0.124873,-0.448136,-0.800000,-0.800000,-0.800000,-0.800000,-0.800000
2.500000,-0.019708,-0.029841,0.524906,slither,-0.510339,-0.497660,-0.225558,0.154811,0.452030,0.494269,0.263481,-0.106698,-0.430979,-0.796850,0.990067,2.143792,2.061474,1.247168,-0.363986,-1.713316,-2.199115,-1.285981,-0.516817,-0.404499,-0.059389,0.332381,0.559641,0.499502,0.183297,-0.220228,-0.495470,-0.800000,0.655570,-0.800000,-0.800000,-0.800000
2.550000,-0.017254,-0.054077,0.360765,slither,-0.534108,-0.432867,-0.111602,0.262556,0.498781,0.456116,0.165805,-0.215588,-0.485446,-0.204478,1.483933,2.124461,1.822711,0.760173,-0.959150,-2.008441,-2.058066,-0.873549,-0.523707,-0.313798,0.073517,0.429861,0.563474,0.402118,0.031843,-0.349189,-0.537047,-0.800000,-0.800000,-0.800000,-0.800000,-0.800000
2.600000,-0.016943,-0.073151,0.198263,slither,-0.537336,-0.354376,0.004562,0.355173,0.516392,0.394576,0.059952,-0.312129,-0.514966,0.105642,1.585926,2.220022,1.607401,0.062298,-1.398503,-2.069433,-1.777474,-0.392124,-0.507206,-0.239980,0.160631,0.479378,0.544938,0.321856,-0.070432,-0.421690,-0.543700,-0.800000,-0.800000,0.713766,-0.800000,-0.800000
2.650000,-0.019598,-0.089172,0.026099,slither,-0.515177,-0.259170,0.116775,0.435194,0.515115,0.314979,-0.049821,-0.398556,-0.521906,0.690331,1.967127,1.952321,1.561017,-0.120835,-1.771074,-2.445323,-1.559776,0.170170,-0.452885,-0.115664,0.281650,0.525968,0.486301,0.184053,-0.218465,-0.505136,-0.522008,-0.800000,-0.800000,0.685475,-0.800000,-0.800000
2.700000,-0.024387,-0.101990,-0.151299,slither,-0.468169,-0.155992,0.227379,0.494437,0.489331,0.223471,-0.158791,-0.464243,-0.503809,0.911357,1.765931,1.791975,0.981460,-0.564624,-1.930335,-2.129519,-1.107914,0.581779,-0.399352,-0.028180,0.351584,0.536539,0.427823,0.084166,-0.309630,-0.541856,-0.487505,-0.800000,-0.800000,-0.800000,-0.800000,-0.800000
2.750000,-0.029550,-0.110253,-0.319707,slither,-0.400667,-0.046184,0.328462,0.531681,0.442023,0.117533,-0.263981,-0.502947,-0.455749,1.564794,2.165632,1.959432,0.594150,-1.120604,-2.167086,-2.072972,-0.504606,1.221744,-0.296275,0.104093,0.435801,0.521612,0.316240,-0.069344,-0.427466,-0.565185,-0.407836,-0.800000,-0.800000,-0.800000,0.683077,-0.800000
2.800000,-0.036084,-0.115482,-0.485089,slither,-0.314394,0.067003,0.420654,0.541700,0.372383,0.009118,-0.354579,-0.517389,-0.387028,1.479097,1.839723,1.615636,-0.093346,-1.491356,-1.932874,-1.610980,-0.154096,1.328153,-0.216282,0.188231,0.474905,0.490908,0.228656,-0.170118,-0.490420,-0.559366,-0.338954,-0.800000,-0.800000,-0.800000,-0.800000,-0.800000
2.850000,-0.042088,-0.116490,-0.633467,slither,-0.212687,0.183090,0.492684,0.529080,0.283111,-0.102163,-0.426493,-0.506259,-0.299531,2.321043,2.387626,1.161288,-0.452003,-1.939736,-2.192406,-1.233365,0.472052,1.958554,-0.083430,0.303885,0.506858,0.417837,0.085861,-0.309658,-0.555206,-0.517750,-0.216122,-0.800000,-0.800000,-0.800000,-0.800000,-0.800000
2.900000,-0.046603,-0.112910,-0.762921,slither,-0.098010,0.294308,0.541487,0.492315,0.182605,-0.210260,-0.475347,-0.469273,-0.199395,2.033328,1.950997,0.803773,-0.934636,-2.041521,-1.993935,-0.784793,0.796596,1.905127,0.013199,0.373759,0.512482,0.356193,-0.009972,-0.388253,-0.574388,-0.467225,-0.123002,-0.800000,-0.800000,-0.800000,-0.800000,-0.800000
2.950000,-0.048332,-0.105028,-0.865354,slither,0.026014,0.396477,0.565658,0.430420,0.076406,-0.304213,-0.500991,-0.411578,-0.089191,2.614497,1.848260,0.201629,-1.512197,-2.332229,-1.800683,-0.285813,1.388037,2.364396,0.154027,0.454074,0.489185,0.241786,-0.154096,-0.484753,-0.571481,-0.366470,0.021533,-0.800000,-0.800000,-0.800000,-0.800000,0.696836
3.000000,-0.046166,-0.091891,-0.921144,slither,0.144110,0.479113,0.563154,0.348831,-0.035966,-0.385201,-0.502842,-0.331756,0.024249,2.139263,1.297527,-0.438373,-1.771114,-2.087841,-1.415365,0.123371,1.629216,2.099051,0.240942,0.488876,0.453198,0.154321,-0.246102,-0.531929,-0.548510,-0.285680,0.116789,-0.800000,-0.800000,-0.800000,-0.800000,0.687924
3.050000,-0.038921,-0.072831,-0.918851,slither,0.255813,0.535448,0.529170,0.244242,-0.150768,-0.446634,-0.480013,-0.236372,0.136355,2.279360,0.699964,-1.163211,-2.395237,-2.341982,-0.987169,0.787100,2.101098,2.389529,0.354170,0.510287,0.371303,0.013066,-0.370917,-0.573324,-0.484273,-0.150281,0.250691,-0.800000,-0.800000,-0.800000,-0.800000,0.680260
3.100000,-0.028412,-0.049764,-0.864060,slither,0.356241,0.561703,0.463652,0.125571,-0.257305,-0.485024,-0.433380,-0.135876,0.240012,1.705745,0.149353,-1.529956,-2.378457,-1.905456,-0.409613,1.135022,1.918027,1.826274,0.414828,0.503392,0.300554,-0.083570,-0.441584,-0.580100,-0.423522,-0.054603,0.329953,-0.800000,-0.800000,-0.800000,-0.800000,0.722279
3.150000,-0.018179,-0.024581,-0.766612,slither,0.442633,0.554496,0.373533,0.002810,-0.352945,-0.498568,-0.365986,-0.029709,0.333246,1.396313,-0.524841,-2.075851,-2.498702,-1.783720,-0.166372,1.427879,2.103375,1.683369,0.478904,0.461824,0.175649,-0.224786,-0.523331,-0.558512,-0.310182,0.089667,0.427734,-0.800000,-0.800000,-0.800000,-0.800000,-0.800000
3.200000,-0.008909,0.003100,-0.616117,slither,0.496027,0.515260,0.260726,-0.119416,-0.425786,-0.489569,-0.284541,0.077524,0.410523,0.659148,-1.082069,-2.262815,-2.324391,-1.209693,0.359759,1.716655,2.100684,1.359853,0.505001,0.417605,0.086484,-0.309504,-0.556694,-0.521267,-0.221066,0.183986,0.477698,-0.800000,-0.800000,-0.800000,0.688945,-0.800000
3.250000,-0.004141,0.028226,-0.454333,slither,0.528446,0.454118,0.145826,-0.229956,-0.478253,-0.458347,-0.189461,0.184566,0.471602,0.391025,-1.425103,-2.416290,-2.203575,-0.905146,0.773872,2.072225,2.213494,0.961413,0.521247,0.333728,-0.045658,-0.412564,-0.569337,-0.431088,-0.071242,0.317861,0.528182,-0.800000,-0.800000,-0.800000,0.672743,-0.800000
3.300000,-0.002698,0.050419,-0.280629,slither,0.534512,0.376663,0.030091,-0.328492,-0.509313,-0.407149,-0.087920,0.286702,0.508345,-0.173786,-1.590960,-1.968605,-1.685701,-0.446884,1.064256,2.030015,1.883359,0.538995,0.511206,0.263801,-0.133259,-0.466420,-0.556418,-0.354476,0.031522,0.394924,0.541201,-0.800000,-0.800000,-0.800000,-0.800000,-0.800000
3.350000,-0.003783,0.067816,-0.110615,slither,0.519914,0.286173,-0.080664,-0.412985,-0.516246,-0.335652,0.023130,0.376456,0.517561,-0.523194,-1.970342,-2.222298,-1.448132,0.135620,1.758470,2.257147,1.714291,0.029152,0.465687,0.143349,-0.257108,-0.520720,-0.505954,-0.220663,0.182130,0.486349,0.528815,-0.800000,-0.800000,0.640582,-0.800000,-0.800000
3.400000,-0.007341,0.081745,0.062610,slither,0.481467,0.186839,-0.193381,-0.477075,-0.497784,-0.247515,0.133406,0.446641,0.506809,-0.888453,-1.875170,-2.290226,-1.090330,0.539735,1.771857,2.075048,1.151181,-0.353161,0.416295,0.056188,-0.331019,-0.537723,-0.453184,-0.122950,0.275586,0.528379,0.499593,-0.800000,-0.800000,-0.800000,-0.800000,-0.800000
3.450000,-0.012710,0.092567,0.239304,slither,0.418748,0.076586,-0.299004,-0.521386,-0.456735,-0.147430,0.235849,0.494780,0.468781,-1.552320,-2.390193,-2.167792,-0.615074,1.101758,2.173768,1.875176,0.702287,-1.001612,0.319678,-0.076022,-0.421223,-0.531261,-0.347665,0.030464,0.399636,0.561167,0.427796,-0.800000,-0.800000,-0.800000,-0.800000,-0.800000
3.500000,-0.018972,0.099190,0.409932,slither,0.338318,-0.041268,-0.393279,-0.538984,-0.393657,-0.042759,0.328609,0.517130,0.409574,-1.558375,-2.211641,-1.691905,-0.124645,1.354430,1.960603,1.674048,0.259773,-1.188827,0.242809,-0.161492,-0.465179,-0.506118,-0.263172,0.132457,0.467634,0.561664,0.363256,-0.800000,0.659537,-0.800000,-0.800000,-0.800000
3.550000,-0.024270,0.100530,0.561063,slither,0.239835,-0.156498,-0.471665,-0.532428,-0.309941,0.067757,0.407280,0.511826,0.325324,-2.295446,-2.495850,-1.408043,0.339752,1.979523,2.428528,1.306636,-0.585879,-2.029225,0.114266,-0.279558,-0.503876,-0.439477,-0.122079,0.276833,0.542032,0.530045,0.246143,-0.800000,-0.800000,-0.800000,-0.800000,-0.800000
3.600000,-0.028721,0.098027,0.693037,slither,0.130273,-0.266223,-0.528104,-0.503640,-0.213784,0.176449,0.464812,0.486281,0.229019,-2.085608,-2.054261,-0.881880,0.796153,1.945483,1.947416,0.944966,-0.654578,-1.802779,0.021270,-0.350165,-0.512424,-0.379702,-0.024489,0.361333,0.569454,0.486925,0.156765,-0.800000,-0.800000,-0.800000,-0.800000,-0.800000
3.650000,-0.031891,0.091304,0.802974,slither,0.007741,-0.371380,-0.560492,-0.448988,-0.107007,0.276917,0.498779,0.434032,0.121930,-2.580587,-1.859197,-0.367157,1.326466,2.127471,1.930643,0.484952,-1.259750,-2.310184,-0.121373,-0.437881,-0.498141,-0.271086,0.120175,0.464415,0.575638,0.392893,0.012976,-0.800000,-0.800000,-0.800000,-0.800000,-0.800000
3.700000,-0.031210,0.079194,0.868651,slither,-0.111481,-0.459856,-0.564749,-0.371887,0.005391,0.364870,0.509074,0.361517,0.009443,-2.074739,-1.379485,0.073086,1.648268,2.214328,1.552901,-0.017038,-1.473203,-2.104718,-0.210769,-0.478274,-0.467857,-0.186374,0.213856,0.516793,0.558607,0.315591,-0.083114,0.686243,-0.800000,-0.800000,-0.800000,-0.800000
3.750000,-0.026686,0.061947,0.880998,slither,-0.226923,-0.521977,-0.538886,-0.273099,0.119707,0.437184,0.497729,0.272028,-0.104431,-2.290827,-0.885421,0.913150,2.244377,2.359064,1.234617,-0.492073,-1.881966,-2.197323,-0.329433,-0.508631,-0.393615,-0.047375,0.343023,0.566814,0.502639,0.183669,-0.220199,0.684334,-0.800000,-0.800000,-0.800000,-0.800000
3.800000,-0.018115,0.039533,0.835704,slither,-0.329478,-0.553973,-0.481673,-0.158393,0.232110,0.485859,0.459311,0.171567,-0.211411,-1.731662,-0.280118,1.406588,2.339258,2.159850,0.717541,-0.961311,-1.958394,-1.934626,-0.394695,-0.507801,-0.327140,0.049075,0.417689,0.579630,0.446727,0.089032,-0.302775,-0.800000,-0.800000,-0.800000,-0.800000,-0.800000
3.850000,-0.007198,0.012780,0.734123,slither,-0.416654,-0.547732,-0.392386,-0.034742,0.331072,0.505038,0.394382,0.062941,-0.307792,-1.526331,0.330577,2.012913,2.613990,1.886878,0.244965,-1.423685,-2.208570,-1.813769,-0.466792,-0.475020,-0.207071,0.192000,0.506774,0.567069,0.339261,-0.055670,-0.407064,-0.800000,-0.800000,-0.800000,-0.800000,-0.800000
3.900000,-0.000135,-0.013992,0.603312,slither,-0.480956,-0.521503,-0.287159,0.087005,0.414756,0.502939,0.314718,-0.045502,-0.391085,-0.865761,0.835732,2.148725,2.407169,1.409092,-0.284438,-1.703188,-2.002450,-1.433123,-0.500760,-0.438091,-0.121728,0.277454,0.544135,0.534100,0.251625,-0.152817,-0.463302,-0.800000,0.651790,-0.800000,-0.800000,-0.800000
3.950000,0.003800,-0.038637,0.455278,slither,-0.522776,-0.471126,-0.176718,0.200819,0.473512,0.479593,0.221793,-0.155591,-0.457311,-0.590158,1.238227,2.369515,2.240969,0.995207,-0.632647,-2.056064,-2.342698,-1.189029,-0.525025,-0.360169,0.010258,0.386744,0.566525,0.452395,0.104864,-0.290307,-0.521794,-0.800000,0.688046,-0.800000,-0.800000,-0.800000
4.000000,0.004379,-0.061885,0.285152,slither,-0.537244,-0.399774,-0.061771,0.308296,0.509417,0.430812,0.120818,-0.259273,-0.501591,-0.069962,1.471720,2.087059,1.950859,0.429283,-1.187137,-1.860860,-1.972238,-0.720482,-0.520704,-0.293672,0.098692,0.445376,0.559880,0.380297,0.002534,-0.371154,-0.540700,-0.800000,-0.800000,-0.800000,-0.800000,-0.800000
4.050000,0.002688,-0.080983,0.115366,slither,-0.530424,-0.315065,0.053641,0.396673,0.520215,0.362895,0.014467,-0.351771,-0.520817,0.389981,1.835732,2.493996,1.642664,0.037737,-1.574201,-2.404652,-1.796411,-0.141987,-0.483547,-0.176975,0.225433,0.507685,0.518266,0.251446,-0.149644,-0.469823,-0.537327,-0.800000,-0.800000,0.634023,-0.800000,-0.800000
4.100000,-0.000976,-0.096470,-0.058749,slither,-0.498183,-0.217810,0.161667,0.467836,0.510411,0.278552,-0.098289,-0.428600,-0.515646,0.868325,1.909524,1.968035,1.179020,-0.369653,-1.729428,-2.229425,-1.339593,0.216042,-0.439658,-0.091583,0.301991,0.530082,0.470507,0.155454,-0.245796,-0.517706,-0.514145,-0.800000,-0.800000,-0.800000,-0.800000,-0.800000
4.150000,-0.006325,-0.107350,-0.231982,slither,-0.443047,-0.110332,0.269385,0.514962,0.475417,0.181889,-0.207642,-0.485324,-0.485381,1.297729,2.028722,2.145439,0.722279,-1.014798,-2.040670,-2.114308,-0.840628,0.974379,-0.348988,0.040887,0.398622,0.532855,0.372163,0.003384,-0.374979,-0.559279,-0.450010,-0.800000,-0.800000,-0.800000,-0.800000,-0.800000
4.200000,-0.012990,-0.114430,-0.402952,slither,-0.367050,0.002191,0.368701,0.542241,0.418396,0.072955,-0.305055,-0.511510,-0.429352,1.465645,2.000223,1.751652,0.335682,-1.204211,-2.048182,-1.756438,-0.322128,1.157854,-0.274967,0.127899,0.447771,0.513854,0.291543,-0.099009,-0.447368,-0.565740,-0.389748,-0.800000,-0.800000,-0.800000,0.658473,-0.800000
4.250000,-0.019505,-0.117825,-0.565120,slither,-0.273162,0.119068,0.454844,0.543740,0.341044,-0.037979,-0.386660,-0.515241,-0.350888,2.027596,2.142741,1.637658,-0.140743,-1.751643,-2.324895,-1.482161,0.109860,1.759544,-0.149722,0.249342,0.494406,0.455167,0.153886,-0.246560,-0.530078,-0.543323,-0.277983,-0.800000,-0.800000,-0.800000,-0.800000,-0.800000
4.300000,-0.025125,-0.116374,-0.707244,slither,-0.164926,0.231813,0.519523,0.522447,0.248298,-0.148122,-0.451600,-0.496110,-0.257511,2.147897,2.114257,0.963294,-0.654939,-1.915823,-2.037249,-1.148218,0.527343,1.776767,-0.055822,0.325032,0.510196,0.401575,0.058725,-0.333106,-0.562383,-0.504805,-0.190001,-0.800000,-0.800000,-0.800000,-0.800000,-0.800000
4.350000,-0.028004,-0.109542,-0.822483,slither,-0.044037,0.341424,0.559026,0.471149,0.140365,-0.250732,-0.491812,-0.449348,-0.152086,2.597112,2.010028,0.582024,-1.233171,-2.282658,-2.072394,-0.596048,1.194223,2.322452,0.088074,0.419803,0.504985,0.299178,-0.085909,-0.442362,-0.577634,-0.417866,-0.047525,-0.800000,-0.800000,-0.800000,-0.800000,0.691872
4.400000,-0.027975,-0.098832,-0.903541,slither,0.076753,0.436568,0.572397,0.400703,0.026580,-0.341695,-0.503417,-0.379803,-0.040977,2.168196,1.738319,0.078193,-1.457241,-2.190872,-1.649133,0.006668,1.440026,1.993452,0.179599,0.465629,0.480522,0.217554,-0.180894,-0.499736,-0.566609,-0.344358,0.049019,-0.800000,-0.800000,-0.800000,-0.800000,0.670518
4.450000,-0.024248,-0.084576,-0.941935,slither,0.193715,0.510818,0.557128,0.309750,-0.086059,-0.413175,-0.493753,-0.291050,0.073005,2.235127,1.290018,-0.621960,-2.104880,-2.228525,-1.262736,0.435856,1.921375,2.331462,0.303230,0.504810,0.414227,0.081358,-0.313904,-0.558186,-0.519132,-0.216432,0.188747,-0.800000,-0.800000,-0.800000,-0.800000,0.666330
4.500000,-0.014473,-0.065253,-0.919805,slither,0.301324,0.551652,0.508535,0.197645,-0.195415,-0.461184,-0.457282,-0.193198,0.181424,1.930783,0.424409,-1.256795,-2.285455,-2.136872,-0.724216,0.906270,1.898257,1.856953,0.372838,0.510050,0.352287,-0.014523,-0.392275,-0.576990,-0.468279,-0.123210,0.274312,-0.800000,-0.800000,-0.800000,-0.800000,0.655820
4.550000,-0.004235,-0.041801,-0.846678,slither,0.398228,0.565256,0.431452,0.076068,-0.298724,-0.494578,-0.405355,-0.090712,0.282558,2.116546,0.178140,-1.714010,-2.508534,-1.885003,-0.554451,1.285773,2.297987,1.983353,0.452673,0.486184,0.237528,-0.158594,-0.488345,-0.573507,-0.367112,0.021353,0.384695,-0.800000,-0.800000,-0.800000,-0.800000,-0.800000
4.600000,0.005576,-0.015347,-0.724513,slither,0.470808,0.544587,0.331472,-0.049415,-0.389114,-0.501430,-0.332971,0.015758,0.368674,0.961597,-0.803857,-2.189380,-2.349226,-1.499355,0.089030,1.518217,2.163192,1.581523,0.487115,0.449840,0.149901,-0.250482,-0.535185,-0.550163,-0.286111,0.116543,0.442994,-0.800000,-0.800000,-0.800000,-0.800000,-0.800000
4.650000,0.014116,0.012169,-0.562153,slither,0.515415,0.493308,0.211709,-0.167571,-0.453104,-0.481592,-0.244739,0.124228,0.438392,0.688282,-1.256977,-2.431970,-2.197778,-1.211629,0.493704,1.950622,2.420045,1.320848,0.517246,0.376238,0.016766,-0.367281,-0.568828,-0.478733,-0.144355,0.255858,0.508130,-0.800000,-0.800000,-0.800000,0.622849,-0.800000
4.700000,0.017314,0.037769,-0.384819,slither,0.535137,0.421997,0.092392,-0.276916,-0.496954,-0.441491,-0.147521,0.228708,0.489153,0.183442,-1.502680,-2.399868,-2.123736,-0.574748,1.035476,1.979152,1.821706,0.805035,0.519494,0.314219,-0.071414,-0.429766,-0.567837,-0.410836,-0.042313,0.340674,0.533305,-0.800000,-0.800000,-0.800000,-0.800000,-0.800000
4.750000,0.017196,0.058579,-0.208463,slither,0.530956,0.337278,-0.024719,-0.368483,-0.514193,-0.381063,-0.044816,0.325444,0.515607,-0.265822,-1.921975,-2.432555,-1.650188,0.023842,1.536235,1.963532,1.703778,0.226369,0.491604,0.202453,-0.199874,-0.499209,-0.534651,-0.286911,0.111338,0.446657,0.539377,-0.800000,-0.800000,-0.800000,-0.800000,-0.800000
4.800000,0.014823,0.074054,-0.037585,slither,0.505917,0.241957,-0.134902,-0.442854,-0.509075,-0.301859,0.062541,0.407417,0.518937,-0.627314,-1.843311,-2.094095,-1.201126,0.340220,1.672120,2.141395,1.371976,-0.075842,0.452923,0.118725,-0.279194,-0.527300,-0.492455,-0.193355,0.209496,0.499919,0.522069,-0.800000,-0.800000,0.632096,-0.800000,-0.800000
4.850000,0.011234,0.085409,0.133397,slither,0.456323,0.136157,-0.242960,-0.497118,-0.478817,-0.206515,0.173693,0.468726,0.495432,-1.160918,-2.045953,-2.247866,-0.871604,0.886792,2.218989,2.313382,0.985842,-0.819327,0.368649,-0.013397,-0.381788,-0.539222,-0.401602,-0.043164,0.343361,0.550170,0.465899,-0.800000,-0.800000,-0.800000,-0.800000,-0.800000
4.900000,0.006287,0.093102,0.301143,slither,0.385834,0.024898,-0.342051,-0.527916,-0.427164,-0.104762,0.276000,0.508309,0.448452,-1.367615,-1.992136,-1.745604,-0.446392,1.189923,1.916731,1.883768,0.595065,-0.976608,0.297889,-0.101493,-0.435828,-0.526337,-0.325080,0.059312,0.419936,0.562642,0.410220,-0.800000,0.665881,-0.800000,-0.800000,-0.800000
4.950000,0.000696,0.096138,0.457421,slither,0.296604,-0.089648,-0.429064,-0.535292,-0.355952,0.005327,0.365431,0.518169,0.375060,-2.079453,-2.491138,-1.629794,0.087761,1.716243,2.427654,1.668482,-0.097198,-1.915083,0.175759,-0.226473,-0.490819,-0.476399,-0.191927,0.208969,0.510184,0.549105,0.303870,-0.800000,0.653082,-0.800000,-0.800000,-0.800000
5.000000,-0.003911,0.094604,0.595067,slither,0.193511,-0.201465,-0.496504,-0.518641,-0.265578,0.117606,0.437082,0.504279,0.285906,-1.949628,-1.947882,-1.231539,0.563278,1.882090,1.901616,1.215761,-0.265595,-1.670940,0.086872,-0.301713,-0.508867,-0.424590,-0.095271,0.301206,0.550920,0.518704,0.220683,-0.800000,-0.800000,-0.800000,-0.800000,-0.800000
5.050000,-0.007587,0.089858,0.713719,slither,0.078787,-0.310382,-0.543229,-0.477930,-0.162638,0.225982,0.485266,0.466295,0.183877,-2.552878,-2.074658,-0.672186,1.069751,2.126063,1.930273,0.789920,-0.989291,-2.248071,-0.054263,-0.399911,-0.509688,-0.325953,0.051431,0.418683,0.577459,0.441290,0.081978,-0.800000,-0.800000,-0.800000,-0.800000,-0.800000
5.100000,-0.008379,0.080991,0.804321,slither,-0.043542,-0.407086,-0.558453,-0.412299,-0.056974,0.315837,0.506878,0.405949,0.073496,-2.138664,-1.704326,-0.160112,1.444176,2.080232,1.811207,0.164016,-1.350237,-2.031347,-0.147554,-0.450989,-0.491144,-0.247737,0.147346,0.480827,0.572484,0.371866,-0.014641,-0.800000,-0.800000,-0.800000,-0.800000,-0.800000
5.150000,-0.006168,0.067059,0.851680,slither,-0.161764,-0.487690,-0.552183,-0.326334,0.056250,0.396835,0.503728,0.323668,-0.040438,-2.214254,-1.615534,0.169780,1.842273,2.469433,1.496260,-0.215084,-1.883997,-2.391473,-0.275665,-0.498841,-0.433058,-0.114883,0.283675,0.547474,0.533685,0.248441,-0.156459,0.680668,-0.800000,-0.800000,-0.800000,-0.800000
5.200000,0.000502,0.048454,0.845289,slither,-0.271703,-0.535750,-0.515773,-0.224889,0.169197,0.457241,0.479734,0.228033,-0.151592,-1.920722,-0.485823,1.189052,2.208722,2.137168,0.922669,-0.766292,-1.931047,-2.000394,-0.349345,-0.510129,-0.375897,-0.019947,0.365441,0.572193,0.488093,0.157002,-0.244675,-0.800000,-0.800000,-0.800000,-0.800000,-0.800000
5.250000,0.009160,0.024165,0.778958,slither,-0.370808,-0.554771,-0.444705,-0.105493,0.273862,0.498100,0.433333,0.122762,-0.254088,-1.916099,-0.051902,1.719379,2.523986,2.010968,0.585245,-1.142439,-2.183106,-2.022747,-0.436601,-0.495274,-0.266901,0.124699,0.468118,0.577801,0.393623,0.013149,-0.360717,-0.800000,-0.800000,-0.800000,-0.800000,-0.800000
5.300000,0.017838,-0.002660,0.665616,slither,-0.448769,-0.540034,-0.350206,0.016029,0.369374,0.509781,0.364382,0.016456,-0.344118,-1.107838,0.536141,1.963584,2.419404,1.742400,0.055059,-1.465792,-2.082356,-1.549591,-0.478006,-0.465908,-0.183213,0.217153,0.519117,0.559413,0.315189,-0.083725,-0.424489,-0.800000,-0.800000,-0.800000,-0.800000,-0.800000
5.350000,0.023592,-0.029728,0.523136,slither,-0.503701,-0.503703,-0.243787,0.138526,0.443741,0.498510,0.278179,-0.093514,-0.421740,-0.969472,0.970967,2.210114,2.248360,1.330593,-0.360132,-1.838001,-2.172284,-1.387277,-0.519520,-0.402235,-0.054457,0.336316,0.559513,0.494489,0.175265,-0.227730,-0.499113,-0.800000,0.612447,-0.800000,-0.800000,-0.800000
5.400000,0.025292,-0.054110,0.362758,slither,-0.533658,-0.443621,-0.128869,0.248744,0.494563,0.465642,0.183921,-0.200530,-0.479845,-0.211349,1.348584,2.153584,1.980933,0.581094,-0.915401,-1.647312,-1.875351,-0.884642,-0.527168,-0.343845,0.034150,0.403370,0.565079,0.431894,0.074680,-0.315479,-0.529821,-0.800000,-0.800000,-0.800000,-0.800000,-0.800000
5.450000,0.024976,-0.073503,0.197662,slither,-0.537602,-0.366051,-0.017010,0.347882,0.521675,0.409645,0.076972,-0.301741,-0.513769,0.086326,1.708197,2.440152,1.938048,0.276494,-1.431428,-2.123759,-1.928940,-0.433841,-0.507043,-0.235928,0.165254,0.481014,0.541701,0.314544,-0.078768,-0.427379,-0.544425,-0.800000,-0.800000,0.648346,-0.800000,-0.800000
5.500000,0.022222,-0.089989,0.027393,slither,-0.521010,-0.276248,0.098097,0.429480,0.523192,0.333044,-0.031264,-0.387451,-0.523716,0.451347,1.817352,2.209094,1.295345,-0.254673,-1.650583,-2.181357,-1.435976,-0.014424,-0.473384,-0.153875,0.247323,0.514971,0.505497,0.224036,-0.178320,-0.485606,-0.532872,-0.800000,-0.800000,0.646928,-0.800000,-0.800000
5.550000,0.017962,-0.103070,-0.145644,slither,-0.478549,-0.175234,0.206882,0.493305,0.504720,0.242259,-0.146199,-0.452244,-0.502567,1.180165,2.360832,2.403321,1.097107,-0.678520,-2.052685,-2.287871,-1.080128,0.717052,-0.396294,-0.023054,0.355070,0.535614,0.422141,0.075989,-0.316642,-0.544612,-0.485141,-0.800000,-0.800000,-0.800000,-0.800000,-0.800000
5.600000,0.011047,-0.113571,-0.328898,slither,-0.411508,-0.062096,0.314790,0.534970,0.458972,0.137293,-0.250079,-0.496899,-0.461387,1.370250,2.188868,1.951402,0.689348,-0.993828,-2.104396,-1.972398,-0.528783,0.964711,-0.329972,0.064931,0.412993,0.528151,0.349324,-0.026810,-0.397695,-0.563590,-0.434757,-0.800000,-0.800000,-0.800000,0.634791,-0.800000
5.650000,0.004637,-0.118461,-0.495432,slither,-0.327196,0.055421,0.407489,0.549161,0.392122,0.030406,-0.343206,-0.516502,-0.398103,2.050770,2.702853,1.767687,-0.119078,-1.691299,-2.306300,-1.691847,-0.114896,1.548746,-0.212541,0.191916,0.475143,0.486243,0.220345,-0.178775,-0.495855,-0.559654,-0.334849,-0.800000,-0.800000,-0.800000,-0.800000,-0.800000
5.700000,-0.000833,-0.118576,-0.644311,slither,-0.228682,0.169454,0.486228,0.537970,0.304744,-0.082293,-0.417637,-0.511101,-0.315134,1.984071,2.275098,1.154441,-0.586060,-1.659683,-1.860527,-1.335193,0.149095,1.740764,-0.124624,0.270554,0.499277,0.440074,0.125982,-0.273181,-0.541948,-0.534826,-0.254368,-0.800000,-0.800000,-0.800000,-0.800000,-0.800000
5.750000,-0.004582,-0.114322,-0.771642,slither,-0.113950,0.280688,0.539652,0.503753,0.201675,-0.194144,-0.471655,-0.477363,-0.214704,2.648517,2.411492,0.790175,-1.044246,-2.233193,-2.204907,-0.764924,1.071234,2.173531,0.020071,0.378285,0.512233,0.351302,-0.016880,-0.393471,-0.575116,-0.463073,-0.116198,-0.800000,-0.800000,-0.800000,-0.800000,-0.800000
5.800000,-0.006242,-0.105660,-0.872649,slither,0.008849,0.383356,0.568226,0.442854,0.090955,-0.294375,-0.503748,-0.424240,-0.105563,2.266038,1.830283,0.299416,-1.359360,-2.267152,-1.866195,-0.274430,1.341519,1.976529,0.114761,0.434414,0.499680,0.276805,-0.113345,-0.460139,-0.576211,-0.398007,-0.019887,-0.800000,-0.800000,-0.800000,-0.800000,0.651399
5.850000,-0.004003,-0.093097,-0.934345,slither,0.128784,0.471375,0.567276,0.362937,-0.022004,-0.377807,-0.507868,-0.345335,0.008203,2.467391,1.574282,-0.263590,-1.753914,-2.267757,-1.454820,0.058180,1.743561,2.461971,0.246846,0.490747,0.450032,0.147817,-0.252455,-0.534720,-0.546243,-0.279570,0.123462,-0.800000,-0.800000,-0.800000,-0.800000,0.647901
5.900000,0.002237,-0.076317,-0.948584,slither,0.243617,0.530667,0.540315,0.262813,-0.134439,-0.439937,-0.486367,-0.251121,0.119304,1.988438,0.935292,-0.818764,-2.173312,-2.200446,-1.065337,0.600180,1.833320,2.163343,0.324307,0.508039,0.397876,0.054202,-0.337294,-0.565257,-0.506090,-0.190275,0.213982,-0.800000,-0.800000,-0.800000,-0.800000,0.639442
5.950000,0.012112,-0.054876,-0.902695,slither,0.344819,0.562594,0.480047,0.145413,-0.243542,-0.483506,-0.444071,-0.152888,0.226666,1.765790,0.584833,-1.326509,-2.475513,-2.308220,-0.568843,1.224213,2.048130,2.211855,0.418640,0.502252,0.295074,-0.090451,-0.446172,-0.579934,-0.418690,-0.047700,0.335224,-0.800000,-0.800000,-0.800000,-0.800000,0.634660
6.000000,0.023859,-0.028190,-0.794495,slither,0.425723,0.557137,0.389334,0.019190,-0.342932,-0.501434,-0.380072,-0.047817,0.319217,1.213335,-0.468148,-1.948135,-2.465950,-1.712144,-0.192372,1.364142,2.097297,1.680873,0.464128,0.477417,0.213243,-0.185364,-0.503236,-0.568527,-0.344933,0.048828,0.402723,-0.800000,-0.800000,-0.800000,-0.800000,-0.800000
6.050000,0.033691,0.000348,-0.651555,slither,0.489902,0.523097,0.277491,-0.103548,-0.421515,-0.497153,-0.299355,0.059784,0.398932,0.965162,-0.965717,-2.352296,-2.468294,-1.332347,0.327333,1.688096,2.361091,1.566179,0.506193,0.413857,0.079907,-0.315287,-0.558492,-0.518034,-0.214460,0.190489,0.480673,-0.800000,-0.800000,-0.800000,-0.800000,-0.800000
6.100000,0.040260,0.026420,-0.488668,slither,0.524422,0.463771,0.160444,-0.216275,-0.473147,-0.465808,-0.206638,0.167631,0.461984,0.389217,-1.360310,-2.280450,-2.019039,-0.893087,0.742724,1.902831,2.237664,1.113707,0.519858,0.359935,-0.008204,-0.386110,-0.570091,-0.460522,-0.115302,0.281216,0.517148,-0.800000,-0.800000,-0.800000,0.603114,-0.800000
6.150000,0.043243,0.049174,-0.319316,slither,0.534660,0.389199,0.043494,-0.316145,-0.503523,-0.413915,-0.101669,0.270019,0.503729,-0.004702,-1.730293,-2.490602,-1.985889,-0.260251,1.434852,2.120720,1.883789,0.598288,0.509253,0.257877,-0.139945,-0.470253,-0.555315,-0.349004,0.038448,0.399608,0.541149,-0.800000,-0.800000,-0.800000,-0.800000,-0.800000
6.200000,0.043247,0.067541,-0.150643,slither,0.523513,0.300814,-0.068328,-0.398795,-0.508046,-0.343818,0.002565,0.364106,0.519717,-0.340328,-1.700583,-2.077430,-1.343428,0.112934,1.441059,1.899946,1.664869,0.135942,0.481546,0.178575,-0.223732,-0.509280,-0.524627,-0.261330,0.139530,0.463052,0.535836,-0.800000,-0.800000,0.601150,-0.800000,-0.800000
6.250000,0.040386,0.082700,0.024176,slither,0.487695,0.200016,-0.177757,-0.467491,-0.497106,-0.256269,0.113262,0.439374,0.511859,-1.058771,-2.303023,-2.467052,-1.216773,0.519185,1.949403,2.430227,1.347139,-0.535786,0.411900,0.049529,-0.336247,-0.538599,-0.449132,-0.116044,0.281734,0.530555,0.496707,-0.800000,-0.800000,-0.800000,-0.800000,-0.800000
6.300000,0.035640,0.094116,0.199467,slither,0.429015,0.092584,-0.283813,-0.511650,-0.458180,-0.158940,0.219316,0.489263,0.476658,-1.206820,-2.089932,-2.066357,-0.605386,0.992122,1.925279,1.950512,0.764902,-0.817281,0.349273,-0.038946,-0.398715,-0.537422,-0.381085,-0.014048,0.366279,0.555354,0.451265,-0.800000,-0.800000,-0.800000,-0.800000,-0.800000
6.350000,0.029961,0.101154,0.367556,slither,0.349252,-0.022908,-0.379472,-0.529404,-0.395492,-0.055689,0.315153,0.514539,0.418378,-1.929914,-2.190498,-1.905116,-0.086518,1.505314,2.069462,1.845054,0.260213,-1.447796,0.236144,-0.168247,-0.468544,-0.504425,-0.257458,0.139006,0.471393,0.560513,0.357719,-0.800000,0.610507,-0.800000,-0.800000,-0.800000
6.400000,0.024862,0.102746,0.516083,slither,0.254336,-0.136167,-0.456287,-0.525014,-0.315437,0.056288,0.397116,0.513829,0.338879,-1.913566,-2.225089,-1.343191,0.253317,1.762286,2.286006,1.262453,-0.294368,-1.652230,0.150979,-0.248620,-0.497395,-0.462886,-0.164648,0.236239,0.523614,0.542226,0.281051,-0.800000,-0.800000,-0.800000,-0.800000,-0.800000
6.450000,0.020502,0.100011,0.645771,slither,0.145461,-0.246965,-0.513787,-0.497603,-0.219800,0.165686,0.460691,0.490933,0.242455,-2.358460,-2.215632,-0.849749,0.929877,1.861575,1.914446,1.046263,-0.670803,-2.039512,0.014366,-0.355010,-0.512609,-0.375128,-0.017610,0.366825,0.570613,0.483129,0.150051,-0.800000,-0.800000,-0.800000,-0.800000,-0.800000
6.500000,0.017566,0.093531,0.755180,slither,0.026862,-0.352677,-0.546771,-0.446736,-0.113916,0.264972,0.497126,0.442175,0.137369,-2.139197,-1.975120,-0.505437,1.117030,1.971487,1.939099,0.433112,-1.120613,-1.989430,-0.081349,-0.415967,-0.506097,-0.304642,0.079026,0.437754,0.577773,0.422677,0.054428,-0.800000,-0.800000,-0.800000,-0.800000,-0.800000
6.550000,0.016444,0.084291,0.837593,slither,-0.095039,-0.444962,-0.556987,-0.375697,-0.005677,0.353715,0.507325,0.371265,0.022522,-2.548162,-1.623891,0.076597,1.642756,2.337913,1.724779,-0.075911,-1.697123,-2.450434,-0.216887,-0.480559,-0.465083,-0.180029,0.220366,0.519976,0.556754,0.309697,-0.089887,0.646878,-0.800000,-0.800000,-0.800000,-0.800000
6.600000,0.020299,0.068964,0.862911,slither,-0.208875,-0.510148,-0.537873,-0.284106,0.107687,0.425314,0.495857,0.282680,-0.091062,-2.014886,-0.925834,0.698474,2.029467,2.157272,1.201687,-0.406046,-1.744058,-2.074503,-0.297823,-0.503788,-0.418138,-0.088104,0.307943,0.556209,0.522200,0.222898,-0.182352,0.636646,-0.800000,-0.800000,-0.800000,-0.800000
6.650000,0.027364,0.048648,0.834939,slither,-0.315085,-0.549066,-0.487870,-0.172734,0.215556,0.478324,0.461006,0.181972,-0.197967,-2.112694,-0.379463,1.390963,2.467483,2.261824,0.759739,-1.114004,-2.015326,-2.033994,-0.398862,-0.507092,-0.321934,0.055983,0.422593,0.579897,0.442215,0.082162,-0.308317,-0.800000,-0.800000,-0.800000,-0.800000,-0.800000
6.700000,0.036849,0.023131,0.747162,slither,-0.405571,-0.553223,-0.405068,-0.053451,0.317555,0.506008,0.405368,0.078183,-0.295751,-1.645951,0.150067,1.753324,2.460459,1.872889,0.263407,-1.274313,-1.924321,-1.749763,-0.449613,-0.488170,-0.243493,0.151849,0.484441,0.574538,0.372524,-0.014463,-0.380025,-0.800000,-0.800000,-0.800000,-0.800000,-0.800000
6.750000,0.044603,-0.004233,0.616182,slither,-0.473365,-0.526792,-0.302295,0.069805,0.404995,0.506735,0.328055,-0.028555,-0.380556,-1.212570,0.762726,2.128527,2.071886,1.480153,-0.023851,-1.617845,-2.304064,-1.606619,-0.502630,-0.434944,-0.115479,0.283238,0.546152,0.531081,0.245017,-0.159626,-0.466804,-0.800000,0.621933,-0.800000,-0.800000,-0.800000
6.800000,0.049348,-0.029607,0.466027,slither,-0.516395,-0.477642,-0.191368,0.184732,0.467696,0.485390,0.237690,-0.138594,-0.449382,-0.723017,1.024950,2.196889,2.195779,0.961206,-0.653998,-1.809484,-2.022441,-1.161134,-0.522022,-0.385483,-0.028004,0.357744,0.563922,0.479049,0.147832,-0.252830,-0.508773,-0.800000,0.608138,-0.800000,-0.800000,-0.800000
6.850000,0.050866,-0.051625,0.307481,slither,-0.536659,-0.411457,-0.078507,0.292265,0.506343,0.440015,0.137407,-0.243673,-0.496658,-0.175354,1.547249,2.496738,2.115045,0.528990,-1.135545,-2.179769,-2.143613,-0.621255,-0.519522,-0.288310,0.105149,0.449267,0.558934,0.374851,-0.004648,-0.376364,-0.541276,-0.800000,-0.800000,-0.800000,-0.800000,-0.800000
6.900000,0.050388,-0.070388,0.140400,slither,-0.533038,-0.328211,0.034609,0.382478,0.521654,0.376241,0.028944,-0.338282,-0.518946,0.291438,1.737053,2.325388,1.560263,0.090862,-1.391567,-2.040745,-1.707187,-0.207958,-0.497217,-0.211450,0.190908,0.493757,0.534396,0.290830,-0.106423,-0.444375,-0.541860,-0.800000,-0.800000,0.590023,-0.800000,-0.800000
6.950000,0.046869,-0.086011,-0.034182,slither,-0.504377,-0.232176,0.149432,0.456668,0.513536,0.292780,-0.081487,-0.418370,-0.518297,0.872134,2.172483,2.483177,1.163295,-0.533303,-1.943404,-2.003050,-1.343717,0.350041,-0.435186,-0.084590,0.307838,0.531724,0.467138,0.148951,-0.251879,-0.520045,-0.511431,-0.800000,-0.800000,-0.800000,-0.800000,-0.800000
7.000000,0.041691,-0.098022,-0.210055,slither,-0.451799,-0.127002,0.256073,0.510263,0.483671,0.196094,-0.191605,-0.474448,-0.489197,1.216877,2.231052,1.968321,0.888437,-0.799696,-1.957724,-2.071969,-0.973824,0.600279,-0.376882,0.003667,0.374267,0.536521,0.403836,0.047889,-0.339835,-0.550799,-0.471319,-0.800000,-0.800000,-0.800000,-0.800000,-0.800000
7.050000,0.035380,-0.105455,-0.381548,slither,-0.377340,-0.013615,0.355011,0.541283,0.429430,0.090302,-0.293397,-0.510463,-0.437662,1.733193,2.171686,1.993108,0.426062,-1.303556,-2.196686,-1.876002,-0.450441,1.311182,-0.268646,0.134636,0.451372,0.512445,0.285936,-0.105754,-0.451583,-0.565120,-0.384585,-0.800000,-0.800000,-0.800000,0.605597,-0.800000
7.100000,0.028843,-0.108407,-0.539093,slither,-0.287812,0.098257,0.443443,0.546240,0.353616,-0.022246,-0.379852,-0.518242,-0.364093,1.612172,1.742751,1.487701,0.020896,-1.552211,-2.242514,-1.610048,-0.054159,1.395620,-0.186170,0.216803,0.485179,0.476030,0.195354,-0.205145,-0.509461,-0.553205,-0.311813,-0.800000,-0.800000,-0.800000,-0.800000,-0.800000
7.150000,0.023606,-0.106936,-0.680079,slither,-0.180862,0.215129,0.510066,0.525597,0.258217,-0.135604,-0.446575,-0.501625,-0.272671,2.379171,2.195311,1.179529,-0.572264,-2.074792,-2.298647,-1.011744,0.781439,2.005073,-0.048911,0.330177,0.510815,0.397335,0.051902,-0.338850,-0.563967,-0.501378,-0.183402,-0.800000,-0.800000,-0.800000,-0.800000,-0.800000
7.200000,0.019953,-0.102306,-0.804866,slither,-0.061226,0.325141,0.552438,0.479513,0.153283,-0.237438,-0.487907,-0.457338,-0.169656,2.255613,1.893083,0.606275,-1.082791,-2.100215,-1.891716,-0.630346,0.924127,1.985333,0.047450,0.395722,0.510370,0.331140,-0.044523,-0.413760,-0.577164,-0.445780,-0.088845,-0.800000,-0.800000,-0.800000,-0.800000,0.652272
7.250000,0.019051,-0.093562,-0.898230,slither,0.061898,0.423864,0.569499,0.411768,0.045801,-0.329084,-0.504061,-0.391776,-0.056086,2.471227,1.762624,0.092299,-1.533779,-2.148456,-1.644285,-0.094818,1.526260,2.431831,0.185907,0.468319,0.478151,0.211394,-0.187537,-0.503298,-0.565178,-0.338702,0.055865,-0.800000,-0.800000,-0.800000,-0.800000,0.623348
7.300000,0.023164,-0.079572,-0.938362,slither,0.178332,0.498085,0.557570,0.323318,-0.068362,-0.404692,-0.497567,-0.307072,0.057693,2.239250,1.173295,-0.450934,-1.892733,-2.260101,-1.262492,0.272239,1.662567,2.105838,0.269998,0.497391,0.436603,0.121521,-0.277506,-0.545085,-0.536358,-0.254741,0.149912,-0.800000,-0.800000,-0.800000,-0.800000,0.618503
7.350000,0.031633,-0.060467,-0.925594,slither,0.287233,0.547409,0.517771,0.214935,-0.183354,-0.459739,-0.467874,-0.210317,0.168320,2.117620,0.706902,-1.099227,-2.371352,-2.248174,-0.917321,0.789395,1.979151,2.216865,0.377343,0.509774,0.347377,-0.021432,-0.397475,-0.577691,-0.464105,-0.116401,0.280102,-0.800000,-0.800000,-0.800000,-0.800000,0.608476
7.400000,0.043189,-0.036445,-0.852057,slither,0.381271,0.562992,0.442978,0.092256,-0.287403,-0.489745,-0.414791,-0.109060,0.268397,1.806626,0.098057,-1.660493,-2.452260,-1.875914,-0.436893,1.118196,1.941955,1.844168,0.433158,0.496839,0.272635,-0.117874,-0.463864,-0.578401,-0.398755,-0.020060,0.355736,-0.800000,-0.800000,-0.800000,-0.800000,-0.800000
7.450000,0.054510,-0.009733,-0.733039,slither,0.457819,0.546577,0.343275,-0.034225,-0.375207,-0.498279,-0.344827,-0.001867,0.356800,1.751826,-0.466129,-2.165941,-2.575291,-1.583396,0.091537,1.584730,2.347202,1.564684,0.488960,0.446650,0.143387,-0.256823,-0.537951,-0.547869,-0.279988,0.123209,0.446626,-0.800000,-0.800000,-0.800000,-0.800000,-0.800000
7.500000,0.062585,0.017138,-0.585168,slither,0.509525,0.503430,0.230861,-0.151763,-0.446109,-0.486474,-0.258528,0.107173,0.428264,0.636071,-1.109061,-2.294244,-2.354464,-1.217927,0.407264,1.758029,2.110043,1.120372,0.512180,0.400123,0.055275,-0.336235,-0.563234,-0.502834,-0.186369,0.217417,0.492920,-0.800000,-0.800000,-0.800000,0.577342,-0.800000
7.550000,0.067102,0.042964,-0.414322,slither,0.535170,0.435834,0.112434,-0.259923,-0.492696,-0.449535,-0.161652,0.213139,0.482376,0.270242,-1.617734,-2.520443,-2.186293,-0.795914,0.938427,2.201838,2.191042,0.878311,0.519634,0.309955,-0.077132,-0.433247,-0.566630,-0.405045,-0.034542,0.346720,0.534807,-0.800000,-0.800000,-0.800000,-0.800000,-0.800000
7.600000,0.066971,0.065795,-0.233708,slither,0.534852,0.353188,-0.003931,-0.357478,-0.514137,-0.392585,-0.060878,0.311944,0.513040,-0.115124,-1.734005,-2.410220,-1.677794,-0.107636,1.313434,2.068238,1.821989,0.423204,0.504016,0.236970,-0.163462,-0.482029,-0.547410,-0.324148,0.068319,0.419756,0.541945,-0.800000,-0.800000,-0.800000,-0.800000,-0.800000
7.650000,0.064780,0.083117,-0.057361,slither,0.512611,0.257004,-0.116702,-0.436183,-0.514082,-0.315316,0.045980,0.397426,0.519996,-0.752733,-2.129655,-2.381539,-1.392176,0.219687,1.773415,2.383822,1.590172,-0.129442,0.450738,0.113638,-0.283555,-0.527752,-0.487965,-0.185596,0.217043,0.503835,0.520827,-0.800000,-0.800000,0.581807,-0.800000,-0.800000
7.700000,0.060338,0.095877,0.120360,slither,0.464818,0.151860,-0.226929,-0.494620,-0.489682,-0.222642,0.156634,0.462150,0.501492,-1.038518,-2.129216,-2.198192,-0.824360,0.794006,1.851471,2.058048,1.048365,-0.501590,0.396982,0.025944,-0.353687,-0.538509,-0.429660,-0.085869,0.308060,0.540419,0.486201,-0.800000,-0.800000,-0.800000,-0.800000,-0.800000
7.750000,0.055762,0.104196,0.286244,slither,0.398446,0.041745,-0.329860,-0.527150,-0.437871,-0.118869,0.260448,0.502498,0.454434,-1.708022,-2.402356,-2.001116,-0.533560,1.154636,2.131130,1.959900,0.596975,-1.151175,0.293899,-0.106334,-0.437909,-0.523587,-0.318081,0.067637,0.425892,0.563745,0.406529,-0.800000,0.605352,-0.800000,-0.800000,-0.800000
7.800000,0.049495,0.109132,0.448405,slither,0.312181,-0.071422,-0.418880,-0.538661,-0.367868,-0.012437,0.354625,0.519647,0.388001,-1.686161,-2.107978,-1.583891,0.055479,1.558697,1.838563,1.656622,0.330098,-1.313240,0.213887,-0.190490,-0.477030,-0.492899,-0.230512,0.168397,0.488834,0.557914,0.337637,-0.800000,0.614971,-0.800000,-0.800000,-0.800000
7.850000,0.044105,0.108655,0.590759,slither,0.209915,-0.184751,-0.489272,-0.525616,-0.280434,0.100238,0.430467,0.510060,0.300386,-2.152960,-1.931340,-1.347217,0.372651,1.896445,2.488739,1.342511,-0.418733,-1.983212,0.082238,-0.305009,-0.507915,-0.418827,-0.086784,0.308801,0.554417,0.517028,0.215466,-0.800000,-0.800000,-0.800000,-0.800000,-0.800000
7.900000,0.039866,0.103860,0.713845,slither,0.095843,-0.296112,-0.537166,-0.487229,-0.180834,0.206221,0.481049,0.476836,0.201504,-2.184803,-2.035649,-0.758912,0.913728,1.972555,1.960010,0.679439,-0.927949,-1.831196,-0.013199,-0.373759,-0.512482,-0.356193,0.009972,0.388253,0.574388,0.467225,0.123002,-0.800000,-0.800000,-0.800000,-0.800000,-0.800000
7.950000,0.038162,0.095027,0.809953,slither,-0.027971,-0.395451,-0.560010,-0.426154,-0.073076,0.305173,0.506107,0.416464,0.089553,-2.605704,-1.858287,-0.192431,1.444476,2.303774,1.930099,0.196634,-1.568574,-2.328531,-0.154027,-0.454074,-0.489185,-0.241786,0.154096,0.484753,0.571481,0.366470,-0.021533,0.631360,-0.800000,-0.800000,-0.800000,-0.800000
8.000000,0.040175,0.081772,0.863412,slither,-0.144558,-0.479329,-0.558812,-0.342481,0.041180,0.388472,0.507691,0.337411,-0.023701,-2.250056,-1.310494,0.358620,1.798796,2.201956,1.490617,-0.115776,-1.625098,-2.158184,-0.240942,-0.488876,-0.453198,-0.154321,0.246102,0.531929,0.548510,0.285680,-0.116789,0.608551,-0.800000,-0.800000,-0.800000,-0.800000
8.050000,0.045543,0.064459,0.867195,slither,-0.258297,-0.534697,-0.524917,-0.239863,0.154009,0.450852,0.486225,0.243575,-0.136355,-2.359071,-0.774807,1.121142,2.217321,2.361510,1.024089,-0.702582,-2.065614,-2.365526,-0.354170,-0.510287,-0.371303,-0.013066,0.370917,0.573324,0.484273,0.150281,-0.250691,0.608571,-0.800000,-0.800000,-0.800000,-0.800000
8.100000,0.054446,0.042619,0.816236,slither,-0.360601,-0.557918,-0.459853,-0.122523,0.260759,0.491167,0.440120,0.139946,-0.239373,-1.639995,-0.144393,1.535489,2.295541,2.016576,0.540981,-1.108552,-2.027192,-1.905382,-0.414828,-0.503392,-0.300554,0.083570,0.441584,0.580100,0.423522,0.054603,-0.329953,-0.800000,-0.800000,-0.800000,-0.800000,-0.800000
8.150000,0.064013,0.017518,0.713907,slither,-0.442672,-0.548583,-0.368720,-0.001858,0.356904,0.507648,0.372449,0.033133,-0.333501,-1.353458,0.457409,2.040313,2.607819,1.785316,0.004040,-1.485460,-2.356148,-1.861262,-0.478904,-0.461824,-0.175649,0.224786,0.523331,0.558512,0.310182,-0.089667,-0.427734,-0.800000,-0.800000,-0.800000,-0.800000,-0.800000
8.200000,0.071031,-0.009650,0.567807,slither,-0.498996,-0.510582,-0.257706,0.118159,0.435686,0.499990,0.289737,-0.075214,-0.410904,-0.817099,0.915248,2.154975,2.149790,1.302461,-0.281036,-1.689244,-2.105012,-1.382743,-0.508516,-0.420922,-0.089604,0.306582,0.553969,0.518741,0.218737,-0.186117,-0.479631,-0.800000,0.566779,-0.800000,-0.800000,-0.800000
8.250000,0.074921,-0.034487,0.404425,slither,-0.528128,-0.450638,-0.143766,0.231297,0.488316,0.469196,0.194810,-0.183495,-0.471120,-0.432392,1.341189,2.248963,2.007511,0.931631,-0.724865,-2.012022,-2.236751,-1.022308,-0.524592,-0.336885,0.042690,0.409784,0.566745,0.428684,0.069026,-0.319889,-0.530021,-0.800000,-0.800000,-0.800000,-0.800000,-0.800000
8.300000,0.075639,-0.055222,0.238477,slither,-0.536000,-0.375329,-0.029814,0.330722,0.516485,0.416047,0.091661,-0.284803,-0.508632,0.018300,1.579396,2.016783,1.813237,0.336148,-1.213885,-2.072576,-1.747308,-0.528890,-0.514210,-0.266635,0.130594,0.463924,0.554091,0.352317,-0.033512,-0.396744,-0.542853,-0.800000,-0.800000,-0.800000,-0.800000,-0.800000
8.350000,0.073669,-0.071679,0.072759,slither,-0.521601,-0.286266,0.081866,0.415923,0.519328,0.341461,-0.018262,-0.375733,-0.522300,0.552558,2.047524,2.581815,1.518731,-0.249526,-1.746815,-2.273748,-1.697610,-0.019330,-0.467933,-0.145468,0.255116,0.518853,0.504214,0.219049,-0.183618,-0.487711,-0.530050,-0.800000,-0.800000,0.564158,-0.800000,-0.800000
8.400000,0.070083,-0.084890,-0.099286,slither,-0.483389,-0.186826,0.193438,0.479585,0.500942,0.251200,-0.128827,-0.447710,-0.509649,0.866387,1.895704,1.920278,1.075633,-0.529270,-1.876955,-2.061989,-1.298693,0.327269,-0.418922,-0.058667,0.328687,0.535539,0.451148,0.121062,-0.277326,-0.529972,-0.501038,-0.800000,-0.800000,-0.800000,-0.800000,-0.800000
8.450000,0.064376,-0.094870,-0.273906,slither,-0.421069,-0.076373,0.298326,0.525031,0.459875,0.148990,-0.235122,-0.497820,-0.470676,1.429380,2.316385,2.083616,0.600933,-1.046512,-2.165462,-2.078534,-0.613005,1.054820,-0.321822,0.073998,0.419320,0.529479,0.346003,-0.032006,-0.401057,-0.562467,-0.428975,-0.800000,-0.800000,-0.800000,0.614337,-0.800000
8.500000,0.057775,-0.101692,-0.446687,slither,-0.338328,0.037731,0.396801,0.543536,0.396020,0.042327,-0.329714,-0.516321,-0.408412,1.707680,2.360036,1.548413,0.161367,-1.345085,-2.031813,-1.672655,-0.184524,1.308869,-0.244932,0.159489,0.463296,0.504354,0.261527,-0.133983,-0.469040,-0.562951,-0.364424,-0.800000,-0.800000,-0.800000,0.598709,-0.800000
8.550000,0.051658,-0.103202,-0.599323,slither,-0.241312,0.151319,0.475875,0.537712,0.315609,-0.067742,-0.408847,-0.514504,-0.325715,2.077221,2.169010,1.358539,-0.355745,-1.878013,-2.268822,-1.439353,0.245958,1.868166,-0.116546,0.277406,0.501853,0.437581,0.120312,-0.278472,-0.543543,-0.531428,-0.247398,-0.800000,-0.800000,-0.800000,-0.800000,-0.800000
8.600000,0.047575,-0.099063,-0.728108,slither,-0.129503,0.263135,0.531474,0.507104,0.216254,-0.176668,-0.468356,-0.488154,-0.231079,2.181486,2.104692,0.871810,-0.780344,-2.042888,-2.103232,-0.873648,0.730054,1.840994,-0.021270,0.350165,0.512424,0.379702,0.024489,-0.361333,-0.569454,-0.486925,-0.156765,-0.800000,-0.800000,-0.800000,-0.800000,-0.800000
8.650000,0.044574,-0.092196,-0.840810,slither,-0.006323,0.369658,0.564009,0.452786,0.108986,-0.274460,-0.499581,-0.434092,-0.121677,2.637989,2.090322,0.248530,-1.432023,-2.276383,-1.803472,-0.256719,1.400360,2.392203,0.121373,0.437881,0.498141,0.271086,-0.120175,-0.464415,-0.575638,-0.392893,-0.012976,-0.800000,-0.800000,-0.800000,-0.800000,0.608804
8.700000,0.046016,-0.080063,-0.907692,slither,0.112254,0.459414,0.569130,0.374323,-0.003534,-0.363201,-0.505243,-0.358261,-0.008791,2.036205,1.565677,-0.148223,-1.562216,-2.159497,-1.483132,0.100530,1.684088,2.003587,0.210769,0.478274,0.467857,0.186374,-0.213856,-0.516793,-0.558607,-0.315591,0.083114,-0.800000,-0.800000,-0.800000,-0.800000,0.595130
8.750000,0.051112,-0.063282,-0.925343,slither,0.226194,0.527475,0.545972,0.276448,-0.119508,-0.434482,-0.491132,-0.267633,0.104108,2.302014,1.276128,-0.668450,-2.136485,-2.333933,-1.302609,0.581401,2.055627,2.237083,0.329433,0.508631,0.393615,0.047375,-0.343023,-0.566814,-0.502639,-0.183669,0.220199,-0.800000,-0.800000,-0.800000,-0.800000,0.588675
8.800000,0.061007,-0.042122,-0.888619,slither,0.331238,0.560245,0.490782,0.162482,-0.230970,-0.479167,-0.450157,-0.168423,0.211087,1.757785,0.138534,-1.486800,-2.329927,-2.041377,-0.610737,1.076935,1.950638,1.914515,0.394695,0.507801,0.327140,-0.049075,-0.417689,-0.579630,-0.446727,-0.089032,0.302775,-0.800000,-0.800000,-0.800000,-0.800000,0.593975
8.850000,0.072391,-0.016722,-0.794727,slither,0.420157,0.561186,0.403912,0.038150,-0.331103,-0.501898,-0.389485,-0.062362,0.309629,1.562154,-0.421090,-2.096732,-2.618297,-1.828998,-0.151312,1.443560,2.241398,1.950636,0.466792,0.475020,0.207071,-0.192000,-0.506774,-0.567069,-0.339261,0.055670,0.407064,-0.800000,-0.800000,-0.800000,-0.800000,-0.800000
8.900000,0.082924,0.011068,-0.652739,slither,0.481848,0.528689,0.295491,-0.084827,-0.412364,-0.500508,-0.309780,0.045976,0.390510,0.848264,-0.920393,-2.188082,-2.325978,-1.406390,0.168140,1.691395,1.973983,1.370394,0.497523,0.435037,0.118856,-0.280144,-0.546643,-0.536426,-0.253769,0.150855,0.461522,-0.800000,-0.800000,-0.800000,-0.800000,-0.800000
8.950000,0.088726,0.038054,-0.490471,slither,0.522073,0.473180,0.178178,-0.200834,-0.470730,-0.475761,-0.219725,0.154867,0.456329,0.483061,-1.387699,-2.457338,-2.318083,-0.876943,0.816189,2.019330,2.308112,1.124298,0.522768,0.358039,-0.012261,-0.388620,-0.568274,-0.454017,-0.106359,0.288939,0.520553,-0.800000,-0.800000,-0.800000,0.560407,-0.800000
9.000000,0.090847,0.061517,-0.320384,slither,0.537545,0.400648,0.062646,-0.304563,-0.507178,-0.428431,-0.117726,0.257262,0.501095,0.003792,-1.445837,-1.917671,-1.879621,-0.428334,1.109281,1.841373,1.747142,0.730942,0.518613,0.291699,-0.100547,-0.447113,-0.561500,-0.381799,-0.003919,0.369887,0.539550,-0.800000,-0.800000,-0.800000,-0.800000,-0.800000
9.050000,0.089788,0.081100,-0.147985,slither,0.528768,0.314689,-0.051438,-0.394425,-0.518638,-0.360948,-0.009879,0.351541,0.520223,-0.393412,-1.914417,-2.502002,-1.707456,0.018475,1.573220,2.353276,1.690213,0.078002,0.481791,0.175318,-0.226992,-0.509145,-0.519627,-0.252708,0.148481,0.468759,0.536361,-0.800000,-0.800000,0.549052,-0.800000,-0.800000
9.100000,0.086240,0.098380,0.043873,avoid_left,0.487395,0.209436,-0.165018,-0.463966,-0.506615,-0.277099,0.094640,0.425585,0.512803,-0.991554,-2.183841,-2.348204,-1.094371,0.538116,1.706406,1.939048,1.213769,-0.327940,0.419073,0.072156,-0.320261,-0.547193,-0.486461,-0.170250,0.232158,0.505226,0.502823,-0.800000,-0.800000,-0.800000,-0.800000,-0.800000
9.150000,0.079955,0.112012,0.235940,avoid_left,0.425969,0.097795,-0.278167,-0.514113,-0.470605,-0.179395,0.198810,0.475042,0.476843,-1.378788,-2.272650,-1.930481,-0.811105,0.911955,2.017540,1.854951,0.844134,-0.968364,0.329356,-0.059415,-0.416045,-0.549174,-0.387377,-0.017494,0.361973,0.547378,0.439213,-0.800000,0.612237,-0.800000,-0.800000,-0.800000
9.200000,0.072896,0.119713,0.409513,avoid_left,0.349871,-0.017119,-0.374537,-0.538951,-0.414995,-0.076724,0.294938,0.502558,0.419808,-1.410855,-2.058982,-1.735825,-0.343011,1.184715,2.028247,1.675963,0.349599,-1.110102,0.255437,-0.146330,-0.465103,-0.530088,-0.306679,0.084972,0.434429,0.553900,0.379007,-0.800000,0.583369,-0.800000,-0.800000,-0.800000
9.250000,0.066230,0.121945,0.565826,avoid_left,0.255858,-0.132829,-0.457803,-0.538762,-0.337403,0.028935,0.380831,0.508703,0.342984,-2.195295,-2.517504,-1.505832,0.232672,1.848038,2.408787,1.464868,-0.281172,-1.821613,0.130004,-0.267951,-0.511906,-0.471558,-0.169167,0.232388,0.517015,0.531369,0.267138,-0.800000,-0.800000,-0.800000,-0.800000,-0.800000
9.300000,0.061297,0.119974,0.703506,avoid_left,0.150191,-0.243977,-0.520745,-0.518685,-0.244893,0.140433,0.442532,0.487607,0.250778,-2.140948,-2.218064,-0.954228,0.698129,1.962872,2.076233,0.945584,-0.606671,-1.734803,0.040313,-0.339668,-0.523960,-0.414466,-0.070744,0.321959,0.552109,0.495403,0.181472,-0.800000,-0.800000,-0.800000,-0.800000,-0.800000
9.350000,0.057805,0.113454,0.818622,avoid_left,0.032049,-0.350075,-0.561410,-0.473782,-0.143426,0.244791,0.486652,0.444683,0.145775,-2.315990,-2.168544,-0.565101,1.264694,2.177843,1.951812,0.648400,-1.118530,-2.291489,-0.095580,-0.426886,-0.511646,-0.305418,0.080091,0.436967,0.572661,0.413315,0.043397,0.594599,-0.800000,-0.800000,-0.800000,-0.800000
9.400000,0.058232,0.102049,0.893070,avoid_left,-0.085628,-0.442059,-0.571813,-0.402753,-0.034991,0.332796,0.502146,0.379444,0.036135,-2.158490,-1.469772,0.207016,1.533755,2.195384,1.541639,0.040128,-1.423185,-2.066573,-0.183445,-0.469259,-0.483936,-0.220751,0.177912,0.496971,0.564060,0.342026,-0.051135,0.586010,-0.800000,-0.800000,-0.800000,-0.800000
9.450000,0.062889,0.086246,0.920008,avoid_left,-0.199676,-0.513300,-0.556531,-0.310302,0.080811,0.409506,0.493791,0.291449,-0.076381,-2.200377,-1.172108,0.575850,2.099189,2.341913,1.378996,-0.395790,-1.888734,-2.419999,-0.305078,-0.506554,-0.415868,-0.082895,0.312472,0.556857,0.517907,0.215311,-0.189763,0.579818,-0.800000,-0.800000,-0.800000,-0.800000
9.500000,0.071518,0.065878,0.896866,avoid_left,-0.305250,-0.557601,-0.513408,-0.201593,0.195395,0.463543,0.461906,0.193823,-0.182646,-1.778439,-0.612373,1.085533,2.187477,2.176012,0.904409,-0.746515,-1.745240,-1.986460,-0.375846,-0.512888,-0.354956,0.012024,0.389944,0.574829,0.466287,0.121387,-0.275966,0.570918,-0.800000,-0.800000,-0.800000,-0.800000
9.550000,0.082133,0.040599,0.815962,avoid_left,-0.401566,-0.568377,-0.432662,-0.079683,0.300367,0.497416,0.409514,0.089987,-0.285008,-1.772867,0.169576,1.875373,2.619896,2.090705,0.403199,-1.314109,-2.234745,-1.996095,-0.461216,-0.494247,-0.245111,0.151492,0.481724,0.567367,0.361452,-0.026532,-0.389394,-0.800000,-0.800000,-0.800000,-0.800000,-0.800000
9.600000,0.091025,0.015329,0.705286,avoid_left,-0.481564,-0.549557,-0.333994,0.042610,0.388091,0.502623,0.335757,-0.017067,-0.374074,-1.073165,0.656659,2.053389,2.362968,1.467585,-0.142655,-1.569005,-2.055814,-1.500262,-0.501266,-0.463195,-0.162459,0.238719,0.524218,0.539992,0.276736,-0.125122,-0.450777,-0.800000,-0.800000,-0.800000,-0.800000,-0.800000
9.650000,0.097478,-0.009846,0.560028,avoid_left,-0.531588,-0.506106,-0.221937,0.162196,0.454896,0.484557,0.245477,-0.127775,-0.445892,-0.938921,1.022696,2.410587,2.479094,1.042864,-0.723439,-1.899587,-2.119515,-1.226810,-0.532585,-0.390714,-0.030379,0.354531,0.556940,0.467708,0.134193,-0.265157,-0.516567,-0.800000,0.538808,-0.800000,-0.800000,-0.800000
9.700000,0.100904,-0.033325,0.396611,avoid_left,-0.554809,-0.440012,-0.106726,0.269022,0.499988,0.446044,0.147730,-0.233923,-0.496050,-0.079147,1.572078,2.398498,2.131839,0.629005,-1.021804,-2.087437,-2.012431,-0.821855,-0.533318,-0.327265,0.059146,0.418275,0.557123,0.400900,0.033154,-0.349055,-0.540909,-0.800000,-0.800000,-0.800000,-0.800000,-0.800000
9.750000,0.101778,-0.054635,0.214519,avoid_left,-0.547740,-0.353637,0.011506,0.363152,0.518772,0.383779,0.038503,-0.330598,-0.522348,0.391438,1.942658,2.409489,1.615684,0.147071,-1.396464,-2.086129,-1.766791,-0.283200,-0.504392,-0.214521,0.188525,0.488579,0.524740,0.277720,-0.119810,-0.454410,-0.546410,-0.800000,-0.800000,-0.800000,-0.800000,-0.800000
9.800000,0.099781,-0.071549,0.034292,avoid_left,-0.519683,-0.255676,0.126231,0.440277,0.511790,0.300520,-0.070427,-0.413731,-0.526408,0.671163,1.924501,2.173997,1.273528,-0.358246,-1.757102,-2.205884,-1.242202,0.202473,-0.465506,-0.130600,0.268026,0.516841,0.482703,0.184311,-0.217832,-0.507548,-0.528989,-0.800000,-0.800000,0.548628,-0.800000,-0.800000
9.850000,0.096071,-0.084686,-0.145742,avoid_left,-0.468625,-0.147959,0.236189,0.496496,0.483438,0.205243,-0.180538,-0.474703,-0.500180,1.224038,2.156184,2.252222,0.912798,-0.877057,-2.060937,-2.190708,-0.993900,0.884918,-0.381172,0.001578,0.370673,0.528811,0.391896,0.034163,-0.351658,-0.557763,-0.472787,-0.800000,-0.800000,-0.800000,-0.800000,-0.800000
9.900000,0.091925,-0.092334,-0.310143,avoid_left,-0.399800,-0.036498,0.335949,0.525414,0.425984,0.098547,-0.282869,-0.511814,-0.450664,1.390022,2.236407,1.876643,0.310378,-1.350211,-2.233610,-2.000509,-0.597795,0.984839,-0.310117,0.089953,0.424976,0.516173,0.315604,-0.068101,-0.428037,-0.570055,-0.416945,-0.800000,-0.800000,-0.800000,0.558258,-0.800000
9.950000,0.085429,-0.097176,-0.474658,avoid_left,-0.307957,0.078452,0.424645,0.534429,0.353187,-0.009937,-0.373591,-0.524279,-0.380042,2.170096,2.570466,1.510325,-0.125860,-1.681247,-2.220130,-1.667187,0.047900,1.695685,-0.185463,0.217315,0.482207,0.468333,0.184406,-0.215944,-0.516613,-0.554988,-0.309207,-0.800000,-0.800000,-0.800000,0.586140,-0.800000
10.000000,0.080670,-0.097011,-0.621162,avoid_left,-0.201582,0.194783,0.491516,0.516169,0.260818,-0.122702,-0.442009,-0.507547,-0.290976,2.042686,2.048448,1.087101,-0.522778,-1.887492,-2.148175,-1.131851,0.513889,1.742571,-0.090318,0.298460,0.505808,0.421725,0.092601,-0.303683,-0.553203,-0.520793,-0.222578,-0.800000,-0.800000,-0.800000,-0.800000,-0.800000
10.050000,0.076164,-0.093500,-0.750667,avoid_left,-0.081773,0.305911,0.537899,0.474670,0.159724,-0.227038,-0.487993,-0.466862,-0.185764,2.547582,2.077454,0.726214,-1.037110,-2.063020,-1.921439,-0.606911,1.102431,2.273015,0.054263,0.399911,0.509688,0.325953,-0.051431,-0.418683,-0.577459,-0.441290,-0.081978,-0.800000,-0.800000,-0.800000,-0.800000,-0.800000
10.100000,0.073406,-0.086291,-0.854303,avoid_left,0.042042,0.403797,0.561501,0.414045,0.052443,-0.320094,-0.505279,-0.401273,-0.074438,2.301751,1.744233,0.089889,-1.401729,-2.027231,-1.619057,-0.174466,1.379771,2.034398,0.147554,0.450989,0.491144,0.247737,-0.147346,-0.480827,-0.572484,-0.371866,0.014641,-0.800000,-0.800000,-0.800000,-0.800000,0.574622
10.150000,0.074640,-0.073288,-0.907344,avoid_left,0.161336,0.485807,0.555327,0.328976,-0.061288,-0.400058,-0.504363,-0.318723,0.041650,2.450785,1.334720,-0.528939,-1.911806,-2.279313,-1.513207,0.186104,1.936722,2.355414,0.275665,0.498841,0.433058,0.114883,-0.283675,-0.547474,-0.533685,-0.248441,0.156459,-0.800000,-0.800000,-0.800000,-0.800000,0.566189
10.200000,0.081488,-0.054445,-0.900696,avoid_left,0.270458,0.538274,0.517599,0.223615,-0.172082,-0.458876,-0.478563,-0.224681,0.152658,2.001688,0.763865,-0.936344,-2.142419,-2.178979,-0.911244,0.702598,1.822649,2.056659,0.349345,0.510129,0.375897,0.019947,-0.365441,-0.572193,-0.488093,-0.157002,0.244675,-0.800000,-0.800000,-0.800000,-0.800000,0.562279
10.250000,0.091389,-0.031330,-0.838970,avoid_left,0.366767,0.559269,0.449302,0.105576,-0.277246,-0.496800,-0.430173,-0.122732,0.254930,1.764391,0.171445,-1.659342,-2.556354,-2.208608,-0.556062,1.205783,2.308312,2.122075,0.436601,0.495274,0.266901,-0.124699,-0.468118,-0.577801,-0.393623,-0.013149,0.360717,-0.800000,-0.800000,-0.800000,-0.800000,-0.800000
10.300000,0.101451,-0.005269,-0.727829,avoid_left,0.447310,0.544807,0.353326,-0.018611,-0.368479,-0.506534,-0.360620,-0.017858,0.346333,1.406479,-0.380196,-1.954196,-2.282817,-1.584550,0.090420,1.530282,1.791071,1.533572,0.476645,0.464624,0.182005,-0.218285,-0.520172,-0.560391,-0.316091,0.082899,0.423740,-0.800000,-0.800000,-0.800000,-0.800000,-0.800000
10.350000,0.109053,0.021346,-0.581971,avoid_left,0.500376,0.504258,0.241668,-0.138686,-0.440078,-0.494622,-0.276811,0.091111,0.418878,0.965341,-1.076345,-2.340846,-2.293087,-1.255413,0.457572,1.740524,2.260880,1.336846,0.506437,0.389888,0.042846,-0.347191,-0.569652,-0.503893,-0.183932,0.219799,0.491917,-0.800000,-0.800000,-0.800000,0.527790,-0.800000
10.400000,0.113180,0.049293,-0.396101,avoid_left,0.521258,0.433745,0.119055,-0.251258,-0.490701,-0.459833,-0.181286,0.193445,0.471622,0.049559,-1.611194,-2.451779,-2.069965,-0.663699,0.907933,1.747213,1.717039,0.825811,0.506568,0.324403,-0.052433,-0.420494,-0.581044,-0.446700,-0.088328,0.302990,0.518491,-0.800000,-0.800000,-0.800000,-0.800000,-0.800000
10.450000,0.113406,0.072277,-0.210697,avoid_left,0.520025,0.348842,0.000255,-0.348915,-0.514210,-0.403382,-0.080562,0.290061,0.502996,-0.150687,-1.768270,-2.149874,-1.804999,-0.233569,1.240773,2.152487,1.995180,0.436625,0.487388,0.217379,-0.182697,-0.497352,-0.556933,-0.328670,0.065746,0.415464,0.533615,-0.800000,-0.800000,0.547714,-0.800000,-0.800000
10.500000,0.110506,0.089081,-0.038384,avoid_left,0.500821,0.256960,-0.111140,-0.430745,-0.517451,-0.328203,0.025998,0.378277,0.511789,-0.601804,-1.898552,-2.090165,-1.430239,0.081551,1.683439,2.067949,1.527218,0.025917,0.453527,0.135136,-0.264945,-0.531477,-0.520886,-0.238308,0.165165,0.473568,0.521951,-0.800000,-0.800000,0.552657,-0.800000,-0.800000
10.550000,0.105888,0.102552,0.135211,avoid_left,0.458356,0.155203,-0.220874,-0.491451,-0.496334,-0.237615,0.138012,0.447506,0.497138,-1.054788,-2.063664,-2.337754,-1.041966,0.621381,1.965655,2.329569,1.135932,-0.608103,0.375895,0.003803,-0.373174,-0.552570,-0.437950,-0.090651,0.303128,0.532246,0.473922,-0.800000,-0.800000,-0.800000,-0.800000,-0.800000
10.600000,0.099597,0.112277,0.308592,avoid_left,0.394801,0.046992,-0.325886,-0.529883,-0.451735,-0.141365,0.241317,0.492736,0.455691,-1.318266,-2.179043,-1.761245,-0.554261,0.978017,1.947236,2.019909,0.635763,-0.919108,0.308878,-0.084838,-0.431714,-0.545685,-0.365672,0.011649,0.383720,0.550801,0.423155,-0.800000,0.546021,-0.800000,-0.800000,-0.800000
10.650000,0.092581,0.117357,0.477454,avoid_left,0.308916,-0.069949,-0.417225,-0.546763,-0.388294,-0.035862,0.332105,0.509821,0.390347,-1.961865,-2.380929,-1.751942,-0.033975,1.557236,2.049998,1.609965,0.121718,-1.512784,0.190913,-0.212327,-0.494338,-0.504221,-0.237107,0.163230,0.481526,0.546542,0.322954,-0.800000,-0.800000,-0.800000,-0.800000,-0.800000
10.700000,0.086234,0.117073,0.624881,avoid_left,0.209840,-0.182432,-0.493233,-0.540708,-0.304347,0.074605,0.410332,0.506522,0.307899,-2.052315,-2.371800,-1.269103,0.396112,1.793904,2.273011,1.383960,-0.243779,-1.621003,0.104077,-0.289946,-0.517512,-0.457153,-0.141906,0.258413,0.528336,0.522369,0.243067,-0.800000,-0.800000,-0.800000,-0.800000,-0.800000
10.750000,0.081778,0.112872,0.752359,avoid_left,0.097574,-0.293599,-0.546035,-0.507439,-0.206250,0.182112,0.467545,0.476377,0.208534,-2.482821,-2.120708,-0.793625,0.994738,1.942823,2.257770,0.888909,-0.941882,-2.186656,-0.031680,-0.389242,-0.522536,-0.360953,0.007883,0.385127,0.567425,0.456035,0.109813,0.607411,-0.800000,-0.800000,-0.800000,-0.800000
10.800000,0.079700,0.104643,0.851615,avoid_left,-0.018505,-0.396462,-0.576521,-0.451822,-0.098957,0.284686,0.498250,0.421046,0.101895,-2.095073,-1.883893,-0.383681,1.215344,2.066847,1.853512,0.479966,-1.120119,-2.059401,-0.121719,-0.440981,-0.505856,-0.282589,0.107952,0.455137,0.571601,0.393788,0.016060,0.566136,-0.800000,-0.800000,-0.800000,-0.800000
10.850000,0.081771,0.090985,0.904877,avoid_left,-0.136266,-0.480434,-0.576165,-0.372867,0.013311,0.373925,0.506299,0.345701,-0.011978,-2.291373,-1.589741,0.160400,1.777033,2.399662,1.683954,-0.071628,-1.727416,-2.373750,-0.249787,-0.493522,-0.452641,-0.150261,0.250176,0.532607,0.544294,0.277788,-0.125079,0.561116,-0.800000,-0.800000,-0.800000,-0.800000
10.900000,0.089017,0.072253,0.907285,avoid_left,-0.249345,-0.538597,-0.547989,-0.269192,0.130423,0.438770,0.488180,0.253643,-0.121817,-1.834604,-0.921115,0.819730,2.134528,2.096734,1.065890,-0.564985,-1.799624,-1.968897,-0.327129,-0.510703,-0.400381,-0.056548,0.335107,0.563228,0.504220,0.188564,-0.215534,0.551754,-0.800000,-0.800000,-0.800000,-0.800000
10.950000,0.098931,0.048894,0.850766,avoid_left,-0.349665,-0.567313,-0.482539,-0.150601,0.240011,0.483915,0.445549,0.150343,-0.228193,-1.951873,-0.096831,1.668505,2.418923,2.096091,0.662375,-1.054558,-2.066736,-1.981436,-0.425307,-0.508544,-0.300990,0.084909,0.441005,0.575142,0.414274,0.043658,-0.338891,0.566851,-0.800000,-0.800000,-0.800000,-0.800000
11.000000,0.109410,0.022454,0.747217,avoid_left,-0.437577,-0.560954,-0.390980,-0.026036,0.339377,0.505221,0.380860,0.043526,-0.325098,-1.608720,0.393876,1.962749,2.329696,1.821394,0.216633,-1.355178,-2.114216,-1.776345,-0.475885,-0.488513,-0.223678,0.175591,0.494124,0.560077,0.337144,-0.055955,-0.409189,-0.800000,-0.800000,-0.800000,-0.800000,-0.800000
11.050000,0.116580,-0.003704,0.617735,avoid_left,-0.504490,-0.529872,-0.284602,0.092924,0.421912,0.501700,0.300443,-0.067128,-0.407245,-1.025083,1.085152,2.263813,2.396518,1.324848,-0.348209,-1.808427,-2.225263,-1.453101,-0.524325,-0.430968,-0.095998,0.300215,0.544440,0.505002,0.202448,-0.201481,-0.490645,-0.800000,0.543098,-0.800000,-0.800000,-0.800000
11.100000,0.121683,-0.028283,0.463456,avoid_left,-0.541156,-0.474873,-0.172365,0.203973,0.478677,0.474891,0.206043,-0.177077,-0.471803,-0.422974,1.271426,2.090689,1.873990,0.929150,-0.772634,-1.778048,-1.935017,-1.032228,-0.536915,-0.376032,-0.006934,0.371932,0.556873,0.448263,0.104002,-0.291556,-0.526529,-0.800000,0.531451,-0.800000,-0.800000,-0.800000
11.150000,0.122918,-0.050437,0.291617,avoid_left,-0.550875,-0.399533,-0.056824,0.308557,0.513469,0.425187,0.103247,-0.281356,-0.511817,0.024477,1.697392,2.255875,2.012047,0.302487,-1.349704,-1.973343,-1.995289,-0.550395,-0.524819,-0.272567,0.126131,0.457314,0.543251,0.337816,-0.048761,-0.409045,-0.549711,-0.800000,-0.800000,-0.800000,-0.800000,-0.800000
11.200000,0.122097,-0.068102,0.119933,avoid_left,-0.537853,-0.312334,0.058393,0.398003,0.520604,0.351614,-0.010189,-0.372123,-0.527916,0.341228,1.768040,2.301161,1.560685,-0.097179,-1.559223,-2.183387,-1.600893,-0.168159,-0.496478,-0.192668,0.210480,0.496867,0.513055,0.250598,-0.149423,-0.472105,-0.544049,-0.800000,-0.800000,0.514002,-0.800000,-0.800000
11.250000,0.118247,-0.084156,-0.060990,avoid_left,-0.501516,-0.212830,0.171607,0.470050,0.506502,0.263292,-0.120827,-0.444486,-0.518191,0.920477,2.078315,2.079745,1.147970,-0.487838,-1.844883,-2.156090,-1.249170,0.438169,-0.426436,-0.063247,0.323346,0.526517,0.437867,0.105596,-0.291364,-0.539367,-0.504702,-0.800000,-0.800000,-0.800000,-0.800000,-0.800000
11.300000,0.113615,-0.095358,-0.238152,avoid_left,-0.442470,-0.103039,0.281757,0.514815,0.464618,0.160850,-0.226357,-0.493334,-0.482402,1.304480,2.189716,2.100433,0.729165,-1.038131,-2.159400,-2.028366,-0.747609,0.845086,-0.363488,0.025532,0.386100,0.525607,0.370069,0.003832,-0.375696,-0.563971,-0.459083,-0.800000,-0.800000,-0.800000,0.593292,-0.800000
11.350000,0.107576,-0.101645,-0.403590,avoid_left,-0.363646,0.010402,0.376539,0.538477,0.402653,0.051584,-0.326153,-0.519133,-0.421947,1.952681,2.617209,1.818018,0.101917,-1.533954,-2.325901,-1.802169,-0.191411,1.462865,-0.249827,0.155333,0.456400,0.493051,0.246854,-0.148841,-0.480458,-0.568808,-0.365245,-0.800000,-0.800000,-0.800000,0.537877,-0.800000
11.400000,0.102310,-0.103730,-0.559966,avoid_left,-0.266956,0.128267,0.456803,0.533557,0.320256,-0.059268,-0.405732,-0.519928,-0.343492,1.911110,2.427502,1.429368,-0.269441,-1.758998,-2.284613,-1.408904,0.088191,1.501725,-0.158604,0.241424,0.490628,0.456547,0.158739,-0.241720,-0.528665,-0.546849,-0.285245,-0.800000,-0.800000,-0.800000,-0.800000,-0.800000
11.450000,0.096406,-0.103015,-0.707928,avoid_left,-0.151193,0.244974,0.518251,0.507321,0.222009,-0.168700,-0.463882,-0.492852,-0.246518,2.453932,2.377285,0.985720,-0.768721,-2.028136,-2.072225,-0.907906,0.888364,2.170723,-0.014366,0.355010,0.512609,0.375128,0.017610,-0.366825,-0.570613,-0.483129,-0.150051,-0.800000,-0.800000,-0.800000,-0.800000,-0.800000
11.500000,0.092712,-0.097577,-0.827917,avoid_left,-0.030009,0.351868,0.556301,0.457410,0.115753,-0.269738,-0.497211,-0.441589,-0.139439,2.236068,1.711297,0.619118,-1.058025,-1.989098,-1.963825,-0.381596,1.160973,1.926993,0.081349,0.415967,0.506097,0.304642,-0.079026,-0.437754,-0.577773,-0.422677,-0.054428,-0.800000,-0.800000,-0.800000,-0.800000,0.558063
11.550000,0.091897,-0.087396,-0.912071,avoid_left,0.093862,0.446595,0.567538,0.385231,0.005947,-0.357477,-0.506321,-0.367379,-0.025509,2.619123,1.811879,-0.072797,-1.792792,-2.397104,-1.625975,0.027402,1.694116,2.506155,0.216887,0.480559,0.465083,0.180029,-0.220366,-0.519976,-0.556754,-0.309697,0.089887,-0.800000,-0.800000,-0.800000,-0.800000,0.550554
11.600000,0.097769,-0.071128,-0.935070,avoid_left,0.208923,0.512225,0.544801,0.288313,-0.103386,-0.425217,-0.493730,-0.278984,0.089964,2.038274,0.878828,-0.833167,-1.931876,-2.150303,-1.159668,0.428227,1.841732,2.062839,0.297823,0.503788,0.418138,0.088104,-0.307943,-0.556209,-0.522200,-0.222898,0.182352,-0.800000,-0.800000,-0.800000,-0.800000,0.543250
11.650000,0.107269,-0.048834,-0.897319,avoid_left,0.312507,0.552624,0.493064,0.174351,-0.217605,-0.474328,-0.457179,-0.181402,0.197818,2.104129,0.627130,-1.258395,-2.407508,-2.263528,-0.742196,1.008388,2.101291,2.068813,0.398862,0.507092,0.321934,-0.055983,-0.422593,-0.579897,-0.442215,-0.082162,0.308317,-0.800000,-0.800000,-0.800000,-0.800000,0.537401
11.700000,0.118060,-0.023561,-0.813040,avoid_left,0.402816,0.558993,0.413440,0.052108,-0.319551,-0.499009,-0.399350,-0.077710,0.295818,1.451305,-0.315542,-1.852712,-2.420173,-1.767245,-0.267718,1.310298,2.041207,1.799892,0.449613,0.488170,0.243493,-0.151849,-0.484441,-0.574538,-0.372524,0.014463,0.380025,-0.800000,-0.800000,-0.800000,-0.800000,-0.800000
11.750000,0.127420,0.003701,-0.685124,avoid_left,0.475308,0.534085,0.307821,-0.071798,-0.403132,-0.500982,-0.324219,0.028976,0.379297,1.334777,-0.645970,-2.262659,-2.639570,-1.541161,0.349072,1.795465,2.037928,1.503691,0.496920,0.429556,0.110412,-0.287984,-0.550576,-0.535184,-0.248800,0.156165,0.463664,-0.800000,-0.800000,-0.800000,-0.800000,-0.800000
11.800000,0.134672,0.030472,-0.523783,avoid_left,0.514754,0.481292,0.192096,-0.189277,-0.463819,-0.477532,-0.234904,0.135420,0.444826,0.531448,-1.252077,-2.182418,-2.051053,-0.935118,0.632705,1.705854,2.082362,1.122007,0.507826,0.372086,0.015405,-0.369545,-0.574923,-0.489252,-0.157237,0.244224,0.500965,-0.800000,-0.800000,-0.800000,0.501666,-0.800000
11.850000,0.137592,0.056936,-0.333236,avoid_left,0.523393,0.401826,0.070523,-0.295177,-0.502867,-0.434895,-0.134864,0.237374,0.488364,-0.048369,-1.763696,-2.292100,-2.038055,-0.428300,1.164439,1.871900,1.975787,0.675464,0.499747,0.269647,-0.122699,-0.465705,-0.574260,-0.389064,-0.008453,0.364376,0.530400,-0.800000,-0.800000,-0.800000,-0.800000,-0.800000
11.900000,0.135768,0.079471,-0.145384,avoid_left,0.513166,0.312611,-0.046218,-0.386374,-0.518889,-0.371648,-0.033214,0.330648,0.509995,-0.336191,-1.773972,-2.122662,-1.470345,-0.080679,1.292144,1.638045,1.732739,0.235502,0.478231,0.193533,-0.207757,-0.509539,-0.549109,-0.304476,0.093846,0.432866,0.531418,-0.800000,-0.800000,0.502004,-0.800000,-0.800000
11.950000,0.131508,0.095915,0.033014,avoid_left,0.483919,0.214093,-0.158237,-0.460945,-0.513516,-0.292915,0.076791,0.407144,0.507220,-0.880912,-2.211526,-2.452300,-1.274349,0.415962,1.634425,2.291556,1.327497,-0.259780,0.416232,0.066701,-0.324660,-0.547480,-0.481828,-0.162575,0.239321,0.508554,0.501006,-0.800000,-0.800000,-0.800000,-0.800000,-0.800000
12.000000,0.126506,0.107398,0.205924,avoid_left,0.433526,0.109071,-0.265315,-0.512241,-0.483194,-0.200570,0.183769,0.465150,0.480916,-1.195413,-2.158416,-2.065254,-0.865937,0.858830,2.067193,1.915126,0.954545,-0.694636,0.357567,-0.021896,-0.391410,-0.552578,-0.418806,-0.061772,0.327038,0.539089,0.460695,-0.800000,-0.800000,-0.800000,-0.800000,-0.800000
12.050000,0.120066,0.114503,0.375839,avoid_left,0.359230,-0.004062,-0.364825,-0.539373,-0.428301,-0.097390,0.282266,0.501220,0.429468,-1.604614,-2.145222,-1.923664,-0.227883,1.390031,2.126277,1.941194,0.411931,-1.375029,0.248765,-0.153398,-0.469015,-0.528971,-0.301343,0.091465,0.438412,0.553067,0.373651,-0.800000,0.527073,-0.800000,-0.800000,-0.800000
12.100000,0.114335,0.116641,0.530316,avoid_left,0.268414,-0.116076,-0.450382,-0.543389,-0.353681,0.011851,0.367992,0.507913,0.355140,-1.692401,-1.896689,-1.465903,0.091765,1.534927,1.810323,1.587734,0.055339,-1.368921,0.165724,-0.236099,-0.503325,-0.493026,-0.211199,0.190450,0.495916,0.540809,0.300568,-0.800000,-0.800000,-0.800000,-0.800000,-0.800000
12.150000,0.108615,0.114895,0.672466,avoid_left,0.161813,-0.232302,-0.516469,-0.525681,-0.264106,0.124618,0.434200,0.491380,0.264521,-2.283348,-2.249900,-1.193402,0.631328,1.969693,2.075654,1.112137,-0.552324,-2.019624,0.032442,-0.345720,-0.525431,-0.411025,-0.064665,0.327013,0.553057,0.491394,0.174345,-0.800000,-0.800000,-0.800000,-0.800000,-0.800000
12.200000,0.104908,0.108431,0.787111,avoid_left,0.046720,-0.339456,-0.557667,-0.481786,-0.162621,0.225052,0.480773,0.453031,0.162130,-2.108278,-1.912407,-0.582855,1.043474,1.940664,1.832507,0.652101,-0.942150,-1.851407,-0.058455,-0.406107,-0.520137,-0.340287,0.035994,0.405851,0.569874,0.439109,0.082792,0.554403,-0.800000,-0.800000,-0.800000,-0.800000
12.250000,0.105435,0.096628,0.861949,avoid_left,-0.072164,-0.432953,-0.573241,-0.414237,-0.050707,0.321154,0.501723,0.389170,0.050548,-2.525418,-1.721084,0.077047,1.628152,2.322368,1.829452,0.147830,-1.519310,-2.305929,-0.191562,-0.473657,-0.483170,-0.216095,0.183154,0.499233,0.561430,0.335273,-0.058976,0.538984,-0.800000,-0.800000,-0.800000,-0.800000
12.300000,0.109337,0.080237,0.892051,avoid_left,-0.186309,-0.507540,-0.562528,-0.324902,0.064230,0.402340,0.498916,0.307653,-0.061195,-2.217932,-1.229472,0.425603,1.902781,2.236005,1.290928,-0.265649,-1.677032,-1.981033,-0.274313,-0.501464,-0.440433,-0.125108,0.274162,0.541983,0.533499,0.252125,-0.152285,0.532395,-0.800000,-0.800000,-0.800000,-0.800000
12.350000,0.117314,0.058747,0.866709,avoid_left,-0.294874,-0.552420,-0.518053,-0.215997,0.178356,0.462966,0.474600,0.210772,-0.169968,-2.194014,-0.499454,1.306549,2.248702,2.161602,1.000235,-0.725245,-2.134812,-2.301847,-0.383344,-0.515437,-0.352703,0.016444,0.392824,0.573378,0.460130,0.112763,-0.283403,0.531735,-0.800000,-0.800000,-0.800000,-0.800000
12.400000,0.127430,0.034229,0.797258,avoid_left,-0.394478,-0.567690,-0.443842,-0.095244,0.283986,0.496956,0.422060,0.107424,-0.271870,-1.682076,0.075406,1.685054,2.390795,1.881802,0.423281,-1.115990,-1.910605,-1.784964,-0.442895,-0.506029,-0.281277,0.109779,0.456317,0.571402,0.392304,0.014156,-0.361092,-0.800000,-0.800000,-0.800000,-0.800000,-0.800000
12.450000,0.135652,0.008809,0.688045,avoid_left,-0.474293,-0.552510,-0.348471,0.023806,0.377301,0.509616,0.353277,-0.001603,-0.362309,-1.362430,0.546902,2.115689,2.287734,1.705602,-0.103762,-1.625902,-2.208239,-1.653221,-0.506440,-0.463146,-0.158900,0.242293,0.524404,0.535306,0.268408,-0.133806,-0.456240,-0.800000,-0.800000,-0.800000,-0.800000,-0.800000
12.500000,0.142087,-0.017257,0.542752,avoid_left,-0.524383,-0.510766,-0.239120,0.141081,0.449539,0.495368,0.263662,-0.112937,-0.437076,-0.576758,1.141749,2.048629,2.156776,1.036413,-0.552558,-1.803154,-1.871181,-1.264184,-0.530589,-0.417497,-0.071612,0.320932,0.548967,0.489602,0.174173,-0.228577,-0.503045,-0.800000,0.491454,-0.800000,-0.800000,-0.800000
12.550000,0.145434,-0.040503,0.381868,avoid_left,-0.550189,-0.446916,-0.125267,0.251097,0.497790,0.458000,0.161820,-0.222724,-0.491882,-0.258445,1.474943,2.404581,2.080847,0.801803,-0.978119,-2.103617,-2.206086,-0.818562,-0.536147,-0.325539,0.062476,0.419520,0.553832,0.393176,0.023602,-0.356731,-0.543890,-0.800000,-0.800000,-0.800000,-0.800000,-0.800000
12.600000,0.145929,-0.061052,0.209844,avoid_left,-0.549386,-0.366684,-0.011380,0.349941,0.519267,0.395583,0.052839,-0.322237,-0.521772,0.217427,1.690462,2.110430,1.782245,0.225631,-1.366753,-2.114122,-1.874055,-0.445659,-0.519344,-0.251436,0.149858,0.469287,0.535530,0.313131,-0.078474,-0.429049,-0.550376,-0.800000,-0.800000,0.518336,-0.800000,-0.800000
12.650000,0.143688,-0.078050,0.034116,avoid_left,-0.526763,-0.271745,0.103701,0.430949,0.516208,0.313773,-0.057129,-0.405811,-0.527492,0.754208,2.147226,2.521741,1.292152,-0.363440,-1.882439,-2.257909,-1.487616,0.165535,-0.464652,-0.126770,0.271206,0.516186,0.477181,0.175595,-0.226261,-0.512270,-0.528480,-0.800000,-0.800000,0.511460,-0.800000,-0.800000
12.700000,0.139345,-0.090954,-0.143353,avoid_left,-0.480258,-0.167382,0.214807,0.489644,0.490983,0.219075,-0.167627,-0.471397,-0.508542,0.960609,1.902037,1.864842,1.018316,-0.699481,-1.790970,-1.943767,-1.104737,0.473303,-0.410389,-0.038596,0.341788,0.527364,0.419270,0.076233,-0.316942,-0.548547,-0.493575,-0.800000,-0.800000,-0.800000,-0.800000,-0.800000
12.750000,0.134566,-0.098911,-0.312357,avoid_left,-0.411971,-0.056481,0.318599,0.525025,0.438216,0.111358,-0.270781,-0.506506,-0.457663,1.534326,1.993563,2.014573,0.590970,-1.272173,-2.289208,-2.004160,-0.420395,1.318258,-0.306961,0.094007,0.426317,0.512729,0.307959,-0.077025,-0.434545,-0.571663,-0.413713,-0.800000,-0.800000,-0.800000,0.510271,-0.800000
12.800000,0.129649,-0.103879,-0.474868,avoid_left,-0.326535,0.060562,0.407170,0.534033,0.366357,0.000445,-0.359033,-0.517563,-0.387741,1.644203,2.222343,1.573522,-0.053970,-1.568509,-2.196228,-1.563478,-0.114459,1.343186,-0.225051,0.179955,0.467122,0.483619,0.221860,-0.176421,-0.496230,-0.564682,-0.343777,-0.800000,-0.800000,-0.800000,0.560891,-0.800000
12.850000,0.124792,-0.103670,-0.623108,avoid_left,-0.218291,0.174618,0.479178,0.518856,0.275657,-0.109165,-0.430094,-0.506520,-0.297786,2.489468,2.490205,1.336790,-0.563977,-2.047604,-2.320266,-1.218386,0.532367,1.967102,-0.083430,0.303885,0.506858,0.417837,0.085861,-0.309658,-0.555206,-0.517750,-0.216122,-0.800000,-0.800000,-0.800000,-0.800000,-0.800000
12.900000,0.119653,-0.100145,-0.758115,avoid_left,-0.101403,0.287553,0.530779,0.481745,0.174153,-0.212612,-0.477926,-0.470610,-0.199953,2.122604,2.117561,0.740348,-0.985293,-2.043408,-1.963388,-0.681370,0.894913,1.864609,0.013199,0.373759,0.512482,0.356193,-0.009972,-0.388253,-0.574388,-0.467225,-0.123002,-0.800000,-0.800000,-0.800000,-0.800000,0.562327
12.950000,0.117183,-0.093030,-0.865772,avoid_left,0.021459,0.394704,0.555362,0.419172,0.067530,-0.307370,-0.498368,-0.408405,-0.089150,2.493766,1.997901,0.402638,-1.358209,-2.136749,-1.808757,-0.277436,1.434851,2.395813,0.154027,0.454074,0.489185,0.241786,-0.154096,-0.484753,-0.571481,-0.366470,0.021533,-0.800000,-0.800000,-0.800000,-0.800000,0.526544
13.000000,0.117403,-0.082518,-0.937969,avoid_left,0.142966,0.477078,0.558658,0.343399,-0.042682,-0.384519,-0.499249,-0.327203,0.024024,2.065512,1.514848,-0.080779,-1.663939,-2.138925,-1.363773,0.163558,1.709673,2.042478,0.240942,0.488876,0.453198,0.154321,-0.246102,-0.531929,-0.548510,-0.285680,0.116789,-0.800000,-0.800000,-0.800000,-0.800000,0.527474
13.050000,0.122486,-0.065936,-0.952467,avoid_left,0.256683,0.536871,0.531513,0.244102,-0.154278,-0.445743,-0.477508,-0.234527,0.136012,2.329197,0.742554,-1.003350,-2.276530,-2.200838,-0.865131,0.824991,1.905070,2.268849,0.354170,0.510287,0.371303,0.013066,-0.370917,-0.573324,-0.484273,-0.150281,0.250691,-0.800000,-0.800000,-0.800000,-0.800000,0.519303
13.100000,0.133817,-0.043472,-0.896468,avoid_left,0.354444,0.561523,0.466490,0.126498,-0.259993,-0.482948,-0.429605,-0.135312,0.241628,1.764329,0.287372,-1.535592,-2.331933,-1.802743,-0.612915,1.014408,2.004019,1.944169,0.414828,0.503392,0.300554,-0.083570,-0.441584,-0.580100,-0.423522,-0.054603,0.329953,-0.800000,-0.800000,-0.800000,-0.800000,0.511109
13.150000,0.145634,-0.017631,-0.793041,avoid_left,0.438701,0.553759,0.373062,0.002324,-0.353702,-0.496669,-0.363014,-0.030354,0.334077,1.513231,-0.543045,-2.142695,-2.393600,-1.671021,-0.048411,1.576905,2.194396,1.721708,0.478904,0.461824,0.175649,-0.224786,-0.523331,-0.558512,-0.310182,0.089667,0.427734,-0.800000,-0.800000,-0.800000,-0.800000,-0.800000
13.200000,0.155730,0.009688,-0.649263,avoid_left,0.497055,0.515175,0.262162,-0.118243,-0.426948,-0.487847,-0.280922,0.075591,0.410623,0.770535,-0.958973,-2.213542,-2.272992,-1.278291,0.292472,1.607654,1.879153,1.258416,0.501758,0.414544,0.083606,-0.312200,-0.559207,-0.523598,-0.223215,0.182020,0.475914,-0.800000,-0.800000,-0.800000,0.514214,-0.800000
13.250000,0.161435,0.038101,-0.466566,avoid_left,0.523171,0.449112,0.140271,-0.232854,-0.480341,-0.458972,-0.188283,0.180020,0.466136,0.209358,-1.541263,-2.474481,-2.192244,-0.823977,0.763394,1.968848,2.187249,0.914702,0.504486,0.317910,-0.060534,-0.426497,-0.582327,-0.443134,-0.082346,0.307700,0.518963,-0.800000,-0.800000,-0.800000,0.496893,-0.800000
13.300000,0.162756,0.063684,-0.270708,avoid_left,0.520182,0.364269,0.018698,-0.333242,-0.507227,-0.406045,-0.091425,0.278720,0.500881,-0.210201,-1.700235,-2.331718,-1.764515,-0.291981,1.155088,1.927197,1.770656,0.469718,0.493763,0.247339,-0.148740,-0.480920,-0.569937,-0.367013,0.019966,0.384349,0.531608,-0.800000,-0.800000,-0.800000,-0.800000,-0.800000
13.350000,0.161481,0.082893,-0.089726,avoid_left,0.501543,0.270739,-0.097126,-0.414563,-0.511623,-0.335152,0.013242,0.365358,0.511538,-0.526119,-1.880264,-2.353416,-1.456017,0.123325,1.622913,2.035540,1.567334,-0.015330,0.448218,0.126862,-0.272612,-0.535241,-0.519492,-0.233219,0.170557,0.475759,0.519207,-0.800000,-0.800000,0.480588,-0.800000,-0.800000
13.400000,0.158247,0.096460,0.079975,avoid_left,0.464151,0.171101,-0.203066,-0.476849,-0.495741,-0.250041,0.121945,0.436415,0.499096,-0.864418,-1.864351,-1.828118,-1.112419,0.409094,1.642214,2.333730,1.295619,-0.349195,0.398911,0.039782,-0.346447,-0.552173,-0.466656,-0.135445,0.264069,0.517841,0.490032,-0.800000,-0.800000,-0.800000,-0.800000,-0.800000
13.450000,0.153425,0.105709,0.249238,avoid_left,0.403130,0.060619,-0.307745,-0.516796,-0.452192,-0.153641,0.225230,0.485389,0.461637,-1.595142,-2.492598,-2.072695,-0.531481,1.192991,2.110523,2.075987,0.753831,-1.044579,0.301098,-0.093557,-0.437713,-0.546706,-0.362065,0.017110,0.387327,0.549903,0.417577,-0.800000,0.505706,-0.800000,-0.800000,-0.800000
13.500000,0.147419,0.111393,0.414385,avoid_left,0.321571,-0.052591,-0.398232,-0.535950,-0.391312,-0.048811,0.320303,0.509833,0.401514,-1.627953,-2.109677,-1.520138,-0.184497,1.301601,1.834459,1.607308,0.326254,-1.170418,0.223669,-0.179556,-0.482166,-0.522029,-0.278006,0.118700,0.454954,0.550060,0.352729,-0.800000,0.511149,-0.800000,-0.800000,-0.800000
13.550000,0.141116,0.112401,0.564918,avoid_left,0.222994,-0.167711,-0.474433,-0.530709,-0.309487,0.059605,0.398558,0.506797,0.318610,-2.296111,-2.475912,-1.255250,0.460823,1.810089,2.159514,1.383450,-0.352401,-1.914505,0.094875,-0.297858,-0.521086,-0.455596,-0.137107,0.262895,0.529185,0.518289,0.235478,-0.800000,-0.800000,-0.800000,-0.800000,-0.800000
13.600000,0.135956,0.108215,0.693175,avoid_left,0.112770,-0.277893,-0.529432,-0.501296,-0.216044,0.167032,0.461046,0.482815,0.221317,-2.068800,-1.864647,-0.991457,0.697122,1.927682,2.082438,1.010909,-0.559252,-1.810375,0.004339,-0.366144,-0.527451,-0.393776,-0.037611,0.349163,0.558237,0.476661,0.147453,-0.800000,-0.800000,-0.800000,-0.800000,-0.800000
13.650000,0.132970,0.099972,0.795021,avoid_left,-0.006345,-0.381138,-0.561242,-0.447839,-0.109858,0.267923,0.496602,0.431466,0.112606,-2.493036,-1.861174,-0.456601,1.240930,2.354683,2.009669,0.320965,-1.414472,-2.354144,-0.131253,-0.447205,-0.506910,-0.279299,0.112518,0.457313,0.569093,0.386903,0.007542,0.522773,-0.800000,-0.800000,-0.800000,-0.800000
13.700000,0.133869,0.087558,0.855290,avoid_left,-0.122422,-0.466410,-0.564427,-0.371967,0.000076,0.357365,0.506434,0.358566,0.002260,-2.030415,-1.488612,0.196724,1.717095,2.141527,1.757185,0.017674,-1.544251,-2.078133,-0.217725,-0.484839,-0.474030,-0.192156,0.208465,0.511793,0.553998,0.311374,-0.086939,0.510569,-0.800000,-0.800000,-0.800000,-0.800000
13.750000,0.138522,0.069605,0.862767,avoid_left,-0.234546,-0.526392,-0.541649,-0.275144,0.114715,0.432926,0.493980,0.267915,-0.110581,-2.084751,-1.102732,0.720904,2.110494,2.095958,1.306139,-0.404087,-1.987807,-2.125758,-0.335707,-0.514551,-0.399183,-0.052590,0.338161,0.562305,0.498483,0.179865,-0.223650,0.506664,-0.800000,-0.800000,-0.800000,-0.800000
13.800000,0.145963,0.046831,0.819485,avoid_left,-0.337760,-0.560260,-0.486244,-0.162436,0.225903,0.482455,0.457478,0.169193,-0.215044,-1.913376,-0.429380,1.311709,2.243020,1.995455,0.810362,-0.866177,-1.865893,-1.935339,-0.403179,-0.515808,-0.334670,0.042022,0.411114,0.573531,0.441106,0.083888,-0.307442,0.537848,-0.800000,-0.800000,-0.800000,-0.800000
13.850000,0.154643,0.021256,0.728972,avoid_left,-0.428983,-0.560918,-0.401352,-0.041050,0.326973,0.508827,0.397449,0.060352,-0.313430,-1.873109,0.219144,1.923895,2.309519,2.050607,0.255387,-1.442540,-2.193272,-1.932561,-0.481975,-0.489349,-0.220546,0.179379,0.495007,0.556156,0.329203,-0.064874,-0.415414,-0.800000,-0.800000,-0.800000,-0.800000,-0.800000
13.900000,0.161509,-0.004897,0.605983,avoid_left,-0.497137,-0.535639,-0.299538,0.076780,0.412877,0.507206,0.317541,-0.050020,-0.397846,-0.983787,0.691264,2.020125,2.367351,1.443643,-0.167794,-1.620574,-2.028327,-1.403411,-0.516999,-0.453418,-0.136141,0.263954,0.531549,0.522428,0.240866,-0.162663,-0.472234,-0.800000,0.486808,-0.800000,-0.800000,-0.800000
13.950000,0.165797,-0.029822,0.457026,avoid_left,-0.538928,-0.485763,-0.189484,0.190310,0.474504,0.484935,0.224245,-0.160508,-0.464462,-0.558656,1.294253,2.420660,2.223485,0.977353,-0.730741,-2.079723,-2.215262,-1.079289,-0.539560,-0.373887,-0.002643,0.374661,0.555260,0.441947,0.095234,-0.299120,-0.529788,-0.800000,0.489617,-0.800000,-0.800000,-0.800000
14.000000,0.166912,-0.053133,0.286076,avoid_left,-0.553232,-0.414684,-0.075499,0.296373,0.515002,0.440195,0.121684,-0.265763,-0.507163,-0.085596,1.521658,2.459292,2.070034,0.367938,-1.212308,-1.814628,-1.725440,-0.620662,-0.534512,-0.306704,0.086437,0.433898,0.549178,0.370372,-0.006614,-0.379525,-0.548294,-0.800000,-0.800000,-0.800000,-0.800000,-0.800000
